M104 T0 S215.000000
M104 T1 S215.000000
M190 S130.000000
M109 T0 S250.000000
;Basic settings: Layer height: 0.22 Walls: 0.5 Fill: 20
;Print time: 2 hours 4 minutes
;Filament used: 4.992m 39.0g
;Filament cost: None
;M190 S130 ;Uncomment to add your own bed temperature line
;M109 S250 ;Uncomment to add your own temperature line
M42 P6 S255                  ; turn lights on
G21                          ; metric values
G90                          ; absolute positioning
M82                          ; set extruder to absolute mode
M107                         ; start with the fan off
M109 T1 S240.000000         ; heat second nozzle for auto leveling (in case machine selected incorrectly)
T0			                   ; switch to first nozzle and retract filament
G1 F100
G92 E0                       ; set extruder position to 0
G1 E-20 F100
G28 F200                         ; home all
G1 Z0  F1200
G1 X20 Y228 F7000
G1 Z-2  F1200                ; lower to brush
G1 X138 Y226 F2000
G1 X40 Y228 F2000
G1 X138 Y226 F2000
G1 E-30 F125
G1 X40 Y228 F2000           ;
G1 Z0 F1200
G28 X0 Y0
M204 S300                    ; set accel for probing
M203 Z4                      ; set z max speed for probing
G29
M204 S3500                   ; set accel back to normal
M203 Z20                      ; set z max back to limit
G1 Z5							  ; raise nozzle up 5mm
M104 T1 S0                  ; cool second nozzle after leveling (in case machine selected incorrectly)
T0                          ; switch back to first nozzle
G1 F100
G1 E6 F100                     ; extrude filament back into nozzle and 7mm more
G92 E0                        ; zero extruder
M400                         ; clear buffer
G4 S1                        ; pause
M117 AXIOM Printing...        ;Put printing message on LCDE screen

;TweakAtZ instances: 1
;Layer count: 226
;LAYER:0
G0 F10500 X178.318 Y100.556 Z0.400
G0 X178.209 Y100.794
;TYPE:SKIRT
M107
G1 F1080 X178.318 Y100.556 E0.01108
G1 X179.639 Y98.525 E0.11362
G1 X181.063 Y96.850 E0.20667
G1 X181.229 Y96.664 E0.21722
G1 X182.803 Y95.233 E0.30726
G1 X182.990 Y95.067 E0.31784
G1 X184.929 Y93.716 E0.41786
G1 X187.050 Y92.608 E0.51914
G1 X189.296 Y91.778 E0.62048
G1 X191.633 Y91.243 E0.72195
G1 X193.654 Y91.047 E0.80789
G1 X193.901 Y91.006 E0.81849
G1 X196.411 Y91.085 E0.92477
G1 X198.774 Y91.467 E1.02608
G1 X201.072 Y92.146 E1.12750
G1 X203.264 Y93.114 E1.22891
G1 X205.313 Y94.354 E1.33028
G1 X207.186 Y95.847 E1.43165
G1 X208.745 Y97.452 E1.52636
G1 X208.912 Y97.640 E1.53700
G1 X210.290 Y99.487 E1.63453
G1 X211.466 Y101.572 E1.73584
G1 X212.247 Y103.497 E1.82377
G1 X212.352 Y103.728 E1.83451
G1 X212.976 Y106.109 E1.93868
G1 X213.276 Y108.424 E2.03748
G1 X213.318 Y109.692 E2.09118
G1 X213.279 Y110.950 E2.14445
G1 X212.982 Y113.255 E2.24281
G1 X212.375 Y115.573 E2.34422
G1 X211.479 Y117.791 E2.44547
G1 X210.305 Y119.881 E2.54692
G1 X208.872 Y121.802 E2.64836
G1 X207.426 Y123.297 E2.73639
G1 X207.260 Y123.483 E2.74694
G1 X205.335 Y125.019 E2.85117
G1 X203.289 Y126.262 E2.95249
G1 X201.347 Y127.123 E3.04240
G1 X201.103 Y127.233 E3.05373
G1 X198.802 Y127.915 E3.15530
G1 X196.439 Y128.300 E3.25663
G1 X194.373 Y128.367 E3.34412
G1 X194.126 Y128.388 E3.35461
G1 X191.659 Y128.152 E3.45950
G1 X189.323 Y127.619 E3.56091
G1 X187.076 Y126.793 E3.66223
G1 X184.951 Y125.688 E3.76360
G1 X182.985 Y124.318 E3.86502
G1 X181.413 Y122.893 E3.95482
G1 X181.213 Y122.714 E3.96618
G1 X179.860 Y121.125 E4.05451
G1 X179.668 Y120.908 E4.06677
G1 X178.349 Y118.879 E4.16920
G1 X177.308 Y116.724 E4.27049
G1 X176.551 Y114.450 E4.37193
G1 X176.092 Y112.100 E4.47327
G1 X175.951 Y109.949 E4.56450
G1 X175.932 Y109.730 E4.57381
G1 X176.075 Y107.517 E4.66766
G1 X176.095 Y107.271 E4.67811
G1 X176.543 Y104.966 E4.77749
G1 X177.297 Y102.692 E4.87889
G1 X178.209 Y100.794 E4.96801
G0 F10500 X178.820 Y101.084
G1 F1200 X178.912 Y100.882 E4.97741
G1 X180.181 Y98.929 E5.07598
G1 X181.573 Y97.293 E5.16690
G1 X181.709 Y97.139 E5.17559
G1 X183.255 Y95.735 E5.26398
G1 X183.409 Y95.598 E5.27270
G1 X185.279 Y94.294 E5.36919
G1 X187.324 Y93.226 E5.46684
G1 X189.489 Y92.426 E5.56452
G1 X191.741 Y91.911 E5.66230
G1 X193.744 Y91.717 E5.74747
G1 X193.947 Y91.683 E5.75618
G1 X196.346 Y91.759 E5.85776
G1 X198.624 Y92.126 E5.95542
G1 X200.839 Y92.781 E6.05318
G1 X202.951 Y93.714 E6.15090
G1 X204.926 Y94.909 E6.24860
G1 X206.732 Y96.348 E6.34633
G1 X208.250 Y97.911 E6.43855
G1 X208.388 Y98.066 E6.44733
G1 X209.723 Y99.856 E6.54184
G1 X210.857 Y101.866 E6.63952
G1 X211.628 Y103.767 E6.72634
G1 X211.713 Y103.955 E6.73507
G1 X212.312 Y106.239 E6.83501
G1 X212.603 Y108.478 E6.93057
G1 X212.643 Y109.692 E6.98198
G1 X212.605 Y110.896 E7.03296
G1 X212.318 Y113.126 E7.12812
G1 X211.733 Y115.360 E7.22586
G1 X210.869 Y117.498 E7.32346
G1 X209.738 Y119.512 E7.42122
G1 X208.357 Y121.363 E7.51896
G1 X206.930 Y122.839 E7.60586
G1 X206.794 Y122.992 E7.61452
G1 X204.948 Y124.465 E7.71447
G1 X202.976 Y125.662 E7.81211
G1 X201.067 Y126.508 E7.90048
G1 X200.866 Y126.599 E7.90982
G1 X198.651 Y127.256 E8.00761
G1 X196.374 Y127.627 E8.10525
G1 X194.349 Y127.692 E8.19100
G1 X194.130 Y127.710 E8.20030
G1 X191.767 Y127.484 E8.30077
G1 X189.515 Y126.971 E8.39852
G1 X187.349 Y126.175 E8.49619
G1 X185.301 Y125.109 E8.59391
G1 X183.407 Y123.789 E8.69162
G1 X181.862 Y122.388 E8.77989
G1 X181.696 Y122.241 E8.78927
G1 X180.341 Y120.649 E8.87775
G1 X180.206 Y120.498 E8.88632
G1 X178.938 Y118.547 E8.98481
G1 X177.934 Y116.469 E9.08248
G1 X177.205 Y114.278 E9.18021
G1 X176.763 Y112.013 E9.27788
G1 X176.624 Y109.905 E9.36729
G1 X176.609 Y109.723 E9.37502
G1 X176.748 Y107.567 E9.46646
G1 X176.765 Y107.364 E9.47509
G1 X177.197 Y105.137 E9.57110
G1 X177.924 Y102.946 E9.66880
G1 X178.820 Y101.084 E9.75626
G0 F10500 X179.429 Y101.373
G1 F1200 X179.505 Y101.207 E9.76398
G1 X180.724 Y99.333 E9.85860
G1 X182.082 Y97.736 E9.94733
G1 X182.190 Y97.614 E9.95422
G1 X183.706 Y96.237 E10.04090
G1 X183.828 Y96.129 E10.04780
G1 X185.630 Y94.872 E10.14079
G1 X187.598 Y93.844 E10.23476
G1 X189.682 Y93.075 E10.32878
G1 X191.849 Y92.578 E10.42287
G1 X193.833 Y92.387 E10.50723
G1 X193.992 Y92.360 E10.51406
G1 X196.282 Y92.432 E10.61103
G1 X198.474 Y92.786 E10.70500
G1 X200.606 Y93.416 E10.79909
G1 X202.639 Y94.314 E10.89316
G1 X204.540 Y95.464 E10.98719
G1 X206.278 Y96.849 E11.08125
G1 X207.756 Y98.371 E11.17104
G1 X207.864 Y98.493 E11.17794
G1 X209.156 Y100.225 E11.26939
G1 X210.247 Y102.160 E11.36341
G1 X211.006 Y104.030 E11.44882
G1 X211.075 Y104.182 E11.45589
G1 X211.648 Y106.368 E11.55154
G1 X211.929 Y108.533 E11.64393
G1 X211.967 Y109.693 E11.69306
G1 X211.931 Y110.842 E11.74171
G1 X211.654 Y112.997 E11.83367
G1 X211.091 Y115.147 E11.92773
G1 X210.260 Y117.205 E12.02167
G1 X209.171 Y119.143 E12.11575
G1 X207.842 Y120.925 E12.20984
G1 X206.438 Y122.377 E12.29532
G1 X206.328 Y122.500 E12.30231
G1 X204.561 Y123.910 E12.39799
G1 X202.663 Y125.063 E12.49198
G1 X200.788 Y125.893 E12.57876
G1 X200.788 Y125.894 E12.57880
G1 X200.630 Y125.966 E12.58615
G1 X198.500 Y126.597 E12.68018
G1 X196.309 Y126.954 E12.77413
G1 X194.291 Y127.019 E12.85958
G1 X194.135 Y127.032 E12.86621
G1 X191.875 Y126.816 E12.96230
G1 X189.708 Y126.322 E13.05636
G1 X187.623 Y125.556 E13.15038
G1 X185.652 Y124.531 E13.24440
G1 X183.828 Y123.260 E13.33850
G1 X182.310 Y121.884 E13.42521
G1 X182.180 Y121.768 E13.43258
G1 X180.869 Y120.228 E13.51818
G1 X180.745 Y120.087 E13.52613
G1 X179.527 Y118.215 E13.62065
G1 X178.561 Y116.215 E13.71466
G1 X177.859 Y114.106 E13.80873
G1 X177.434 Y111.926 E13.90274
G1 X177.298 Y109.860 E13.99037
G1 X177.286 Y109.717 E13.99644
G1 X177.421 Y107.617 E14.08550
G1 X177.435 Y107.456 E14.09234
G1 X177.851 Y105.308 E14.18494
G1 X178.551 Y103.199 E14.27899
G1 X179.429 Y101.373 E14.36474
G0 F10500 X162.176 Y106.149
G1 F1200 X162.476 Y108.462 E14.46346
G1 X162.519 Y109.732 E14.51724
G1 X162.478 Y110.992 E14.57060
G1 X162.182 Y113.296 E14.66891
G1 X161.575 Y115.613 E14.77029
G1 X160.679 Y117.832 E14.87157
G1 X159.505 Y119.920 E14.97295
G1 X158.073 Y121.842 E15.07440
G1 X156.629 Y123.335 E15.16230
G1 X156.460 Y123.525 E15.17307
G1 X154.534 Y125.060 E15.27730
G1 X152.489 Y126.302 E15.37857
G1 X150.547 Y127.163 E15.46848
G1 X150.303 Y127.273 E15.47981
G1 X148.002 Y127.955 E15.58138
G1 X145.640 Y128.340 E15.68267
G1 X143.572 Y128.408 E15.77024
G1 X143.325 Y128.429 E15.78073
G1 X140.860 Y128.191 E15.88555
G1 X138.524 Y127.660 E15.98694
G1 X136.277 Y126.835 E16.08824
G1 X134.151 Y125.729 E16.18967
G1 X132.185 Y124.359 E16.29109
G1 X130.613 Y122.934 E16.38089
G1 X130.412 Y122.755 E16.39228
G1 X129.060 Y121.165 E16.48062
G1 X128.868 Y120.948 E16.49288
G1 X127.549 Y118.919 E16.59531
G1 X126.508 Y116.764 E16.69660
G1 X125.751 Y114.490 E16.79803
G1 X125.292 Y112.140 E16.89937
G1 X125.154 Y110.018 E16.98938
G1 X125.133 Y109.771 E16.99987
G1 X125.275 Y107.558 E17.09372
G1 X125.295 Y107.311 E17.10421
G1 X125.743 Y105.007 E17.20355
G1 X126.497 Y102.732 E17.30499
G1 X127.400 Y100.855 E17.39314
G1 X127.518 Y100.597 E17.40515
G1 X128.839 Y98.566 E17.50769
G1 X130.263 Y96.890 E17.60078
G1 X130.429 Y96.703 E17.61136
G1 X132.004 Y95.273 E17.70139
G1 X132.190 Y95.108 E17.71192
G1 X134.128 Y93.756 E17.81193
G1 X136.250 Y92.648 E17.91325
G1 X138.497 Y91.818 E18.01463
G1 X140.834 Y91.284 E18.11609
G1 X142.856 Y91.087 E18.20207
G1 X143.102 Y91.046 E18.21263
G1 X145.611 Y91.126 E18.31887
G1 X147.973 Y91.506 E18.42013
G1 X150.272 Y92.186 E18.52159
G1 X152.265 Y93.066 E18.61380
G1 X152.493 Y93.170 E18.62441
G1 X154.514 Y94.396 E18.72445
G1 X156.386 Y95.887 E18.82574
G1 X158.054 Y97.606 E18.92712
G1 X159.489 Y99.526 E19.02857
G1 X160.666 Y101.612 E19.12994
G1 X161.445 Y103.534 E19.21771
G1 X161.551 Y103.769 E19.22863
G1 X162.176 Y106.149 E19.33277
G0 F10500 X161.512 Y106.279
G1 F1200 X161.802 Y108.517 E19.42828
G1 X161.844 Y109.733 E19.47978
G1 X161.805 Y110.937 E19.53076
G1 X161.518 Y113.167 E19.62593
G1 X160.933 Y115.400 E19.72362
G1 X160.069 Y117.539 E19.82126
G1 X158.938 Y119.552 E19.91898
G1 X157.557 Y121.404 E20.01676
G1 X156.130 Y122.880 E20.10365
G1 X155.994 Y123.033 E20.11232
G1 X154.147 Y124.505 E20.21228
G1 X152.176 Y125.702 E20.30988
G1 X150.267 Y126.548 E20.39825
G1 X150.066 Y126.639 E20.40759
G1 X147.851 Y127.296 E20.50537
G1 X145.575 Y127.667 E20.60297
G1 X143.549 Y127.733 E20.68877
G1 X143.330 Y127.751 E20.69807
G1 X140.967 Y127.524 E20.79854
G1 X138.716 Y127.011 E20.89625
G1 X136.550 Y126.216 E20.99391
G1 X134.501 Y125.150 E21.09166
G1 X132.607 Y123.830 E21.18937
G1 X131.062 Y122.429 E21.27764
G1 X130.896 Y122.282 E21.28703
G1 X129.537 Y120.685 E21.37578
G1 X129.406 Y120.538 E21.38411
G1 X128.138 Y118.587 E21.48259
G1 X127.134 Y116.509 E21.58027
G1 X126.405 Y114.318 E21.67800
G1 X125.963 Y112.053 E21.77567
G1 X125.825 Y109.943 E21.86516
G1 X125.810 Y109.764 E21.87277
G1 X125.948 Y107.608 E21.96420
G1 X125.965 Y107.404 E21.97287
G1 X126.397 Y105.178 E22.06884
G1 X127.124 Y102.985 E22.16662
G1 X128.029 Y101.105 E22.25493
G1 X128.112 Y100.923 E22.26339
G1 X129.381 Y98.970 E22.36197
G1 X130.773 Y97.333 E22.45292
G1 X130.910 Y97.178 E22.46167
G1 X132.455 Y95.775 E22.55000
G1 X132.608 Y95.639 E22.55866
G1 X134.479 Y94.334 E22.65521
G1 X136.524 Y93.266 E22.75285
G1 X138.690 Y92.466 E22.85058
G1 X140.942 Y91.952 E22.94835
G1 X142.946 Y91.757 E23.03356
G1 X143.148 Y91.723 E23.04223
G1 X145.546 Y91.800 E23.14378
G1 X147.824 Y92.166 E23.24143
G1 X150.039 Y92.821 E23.33919
G1 X151.989 Y93.682 E23.42941
G1 X152.177 Y93.768 E23.43816
G1 X154.127 Y94.951 E23.53469
G1 X155.932 Y96.388 E23.63233
G1 X157.540 Y98.045 E23.73006
G1 X158.923 Y99.895 E23.82782
G1 X160.057 Y101.906 E23.92553
G1 X160.828 Y103.809 E24.01243
G1 X160.913 Y103.996 E24.02113
G1 X161.512 Y106.279 E24.12102
G0 F10500 X160.848 Y106.408
G1 F1200 X161.129 Y108.572 E24.21338
G1 X161.168 Y109.733 E24.26254
G1 X161.131 Y110.883 E24.31124
G1 X160.854 Y113.038 E24.40320
G1 X160.291 Y115.187 E24.49722
G1 X159.460 Y117.246 E24.59120
G1 X158.371 Y119.183 E24.68525
G1 X157.042 Y120.966 E24.77937
G1 X155.638 Y122.418 E24.86485
G1 X155.528 Y122.541 E24.87184
G1 X153.760 Y123.950 E24.96752
G1 X151.863 Y125.103 E25.06148
G1 X149.988 Y125.933 E25.14826
G1 X149.988 Y125.934 E25.14830
G1 X149.830 Y126.006 E25.15565
G1 X147.700 Y126.637 E25.24967
G1 X145.509 Y126.994 E25.34363
G1 X143.490 Y127.060 E25.42912
G1 X143.334 Y127.073 E25.43575
G1 X141.075 Y126.856 E25.53180
G1 X138.908 Y126.362 E25.62587
G1 X136.823 Y125.597 E25.71987
G1 X134.852 Y124.572 E25.81389
G1 X133.028 Y123.301 E25.90798
G1 X131.510 Y121.925 E25.99470
G1 X131.380 Y121.808 E26.00210
G1 X130.069 Y120.268 E26.08770
G1 X129.945 Y120.127 E26.09564
G1 X128.727 Y118.255 E26.19017
G1 X127.761 Y116.255 E26.28417
G1 X127.059 Y114.146 E26.37825
G1 X126.634 Y111.966 E26.47225
G1 X126.499 Y109.899 E26.55992
G1 X126.487 Y109.758 E26.56591
G1 X126.621 Y107.657 E26.65501
G1 X126.635 Y107.496 E26.66185
G1 X127.051 Y105.349 E26.75441
G1 X127.751 Y103.239 E26.84850
G1 X128.629 Y101.414 E26.93422
G1 X128.705 Y101.248 E26.94194
G1 X129.923 Y99.375 E27.03650
G1 X131.282 Y97.776 E27.12532
G1 X131.390 Y97.654 E27.13222
G1 X132.906 Y96.278 E27.21887
G1 X133.027 Y96.170 E27.22573
G1 X134.830 Y94.913 E27.31876
G1 X136.798 Y93.884 E27.41275
G1 X138.883 Y93.114 E27.50682
G1 X141.050 Y92.619 E27.60090
G1 X143.034 Y92.426 E27.68526
G1 X143.193 Y92.400 E27.69208
G1 X145.482 Y92.473 E27.78901
G1 X147.674 Y92.825 E27.88297
G1 X149.806 Y93.456 E27.97708
G1 X151.713 Y94.298 E28.06530
G1 X151.862 Y94.366 E28.07224
G1 X153.740 Y95.506 E28.16522
G1 X155.478 Y96.889 E28.25922
G1 X157.025 Y98.484 E28.35327
G1 X158.356 Y100.264 E28.44734
G1 X159.447 Y102.200 E28.54139
G1 X160.206 Y104.071 E28.62684
G1 X160.275 Y104.223 E28.63391
G1 X160.848 Y106.408 E28.72951
G0 F10500 X108.510 Y111.080
G1 F1200 X108.553 Y112.350 E28.78330
G1 X108.512 Y113.610 E28.83665
G1 X108.216 Y115.911 E28.93484
G1 X107.610 Y118.230 E29.03629
G1 X106.713 Y120.450 E29.13763
G1 X105.539 Y122.539 E29.23904
G1 X104.106 Y124.460 E29.34048
G1 X102.663 Y125.952 E29.42833
G1 X102.495 Y126.141 E29.43903
G1 X100.570 Y127.677 E29.54326
G1 X98.523 Y128.920 E29.64462
G1 X96.581 Y129.781 E29.73453
G1 X96.337 Y129.891 E29.74586
G1 X94.037 Y130.573 E29.84739
G1 X91.673 Y130.958 E29.94876
G1 X89.607 Y131.025 E30.03625
G1 X89.360 Y131.046 E30.04674
G1 X86.895 Y130.810 E30.15155
G1 X84.557 Y130.277 E30.25304
G1 X82.310 Y129.451 E30.35436
G1 X80.185 Y128.346 E30.45573
G1 X78.219 Y126.976 E30.55715
G1 X76.648 Y125.551 E30.64692
G1 X76.448 Y125.372 E30.65828
G1 X75.095 Y123.783 E30.74661
G1 X74.904 Y123.567 E30.75881
G1 X73.583 Y121.538 E30.86128
G1 X72.542 Y119.382 E30.96261
G1 X71.785 Y117.107 E31.06409
G1 X71.326 Y114.757 E31.16543
G1 X71.188 Y112.636 E31.25539
G1 X71.167 Y112.389 E31.26588
G1 X71.309 Y110.176 E31.35974
G1 X71.329 Y109.929 E31.37022
G1 X71.777 Y107.624 E31.46961
G1 X72.531 Y105.350 E31.57100
G1 X73.443 Y103.452 E31.66013
G1 X73.552 Y103.214 E31.67120
G1 X74.875 Y101.182 E31.77383
G1 X76.298 Y99.508 E31.86682
G1 X76.463 Y99.322 E31.87734
G1 X78.037 Y97.891 E31.96737
G1 X78.224 Y97.725 E31.97796
G1 X80.163 Y96.374 E32.07798
G1 X82.284 Y95.266 E32.17926
G1 X84.530 Y94.436 E32.28060
G1 X86.868 Y93.901 E32.38211
G1 X88.888 Y93.705 E32.46801
G1 X89.135 Y93.664 E32.47860
G1 X91.645 Y93.743 E32.58489
G1 X94.010 Y94.125 E32.68628
G1 X96.306 Y94.804 E32.78762
G1 X98.497 Y95.772 E32.88900
G1 X100.548 Y97.012 E32.99043
G1 X102.421 Y98.505 E33.09181
G1 X103.979 Y100.110 E33.18648
G1 X104.146 Y100.298 E33.19712
G1 X105.524 Y102.145 E33.29465
G1 X106.699 Y104.229 E33.39591
G1 X107.477 Y106.143 E33.48335
G1 X107.587 Y106.387 E33.49468
G1 X108.210 Y108.768 E33.59885
G1 X108.510 Y111.080 E33.69752
G0 F10500 X107.836 Y111.135
G1 F1200 X107.878 Y112.351 E33.74902
G1 X107.839 Y113.556 E33.80004
G1 X107.552 Y115.782 E33.89504
G1 X106.968 Y118.017 E33.99281
G1 X106.103 Y120.157 E34.09050
G1 X104.972 Y122.170 E34.18822
G1 X103.591 Y124.021 E34.28597
G1 X102.161 Y125.499 E34.37301
G1 X102.028 Y125.649 E34.38149
G1 X100.183 Y127.123 E34.48144
G1 X98.209 Y128.320 E34.57915
G1 X96.301 Y129.166 E34.66748
G1 X96.100 Y129.257 E34.67682
G1 X93.886 Y129.914 E34.77456
G1 X91.608 Y130.285 E34.87225
G1 X89.583 Y130.350 E34.95800
G1 X89.364 Y130.368 E34.96730
G1 X87.002 Y130.142 E35.06772
G1 X84.750 Y129.629 E35.16548
G1 X82.583 Y128.833 E35.26318
G1 X80.535 Y127.767 E35.36090
G1 X78.640 Y126.447 E35.45865
G1 X77.074 Y125.026 E35.54814
G1 X76.931 Y124.899 E35.55624
G1 X75.572 Y123.303 E35.64496
G1 X75.442 Y123.156 E35.65326
G1 X74.172 Y121.205 E35.75179
G1 X73.168 Y119.127 E35.84947
G1 X72.439 Y116.935 E35.94724
G1 X71.997 Y114.670 E36.04491
G1 X71.859 Y112.561 E36.13436
G1 X71.844 Y112.382 E36.14196
G1 X71.982 Y110.226 E36.23340
G1 X71.999 Y110.022 E36.24206
G1 X72.431 Y107.795 E36.33808
G1 X73.158 Y105.604 E36.43578
G1 X74.053 Y103.743 E36.52318
G1 X74.146 Y103.539 E36.53267
G1 X75.417 Y101.587 E36.63125
G1 X76.808 Y99.951 E36.72214
G1 X76.944 Y99.797 E36.73083
G1 X78.488 Y98.393 E36.81916
G1 X78.643 Y98.256 E36.82792
G1 X80.513 Y96.952 E36.92440
G1 X82.558 Y95.884 E37.02205
G1 X84.724 Y95.084 E37.11977
G1 X86.976 Y94.569 E37.21755
G1 X88.977 Y94.375 E37.30264
G1 X89.181 Y94.341 E37.31139
G1 X91.580 Y94.417 E37.41297
G1 X93.859 Y94.784 E37.51067
G1 X96.073 Y95.439 E37.60839
G1 X98.185 Y96.372 E37.70611
G1 X100.161 Y97.567 E37.80385
G1 X101.966 Y99.006 E37.90155
G1 X103.484 Y100.569 E37.99377
G1 X103.622 Y100.724 E38.00255
G1 X104.957 Y102.514 E38.09706
G1 X106.090 Y104.523 E38.19468
G1 X106.865 Y106.430 E38.28180
G1 X106.949 Y106.614 E38.29036
G1 X107.546 Y108.898 E38.39027
G1 X107.836 Y111.135 E38.48574
G0 F10500 X107.163 Y111.190
G1 F1200 X107.202 Y112.351 E38.53491
G1 X107.165 Y113.501 E38.58361
G1 X106.888 Y115.653 E38.67544
G1 X106.326 Y117.804 E38.76953
G1 X105.494 Y119.864 E38.86356
G1 X104.405 Y121.801 E38.95761
G1 X103.076 Y123.583 E39.05170
G1 X101.672 Y125.035 E39.13718
G1 X101.562 Y125.158 E39.14417
G1 X99.796 Y126.568 E39.23981
G1 X97.896 Y127.721 E39.33388
G1 X96.022 Y128.551 E39.42062
G1 X96.022 Y128.552 E39.42066
G1 X95.864 Y128.624 E39.42801
G1 X93.735 Y129.255 E39.52199
G1 X91.542 Y129.612 E39.61603
G1 X89.525 Y129.677 E39.70144
G1 X89.369 Y129.690 E39.70807
G1 X87.110 Y129.474 E39.80411
G1 X84.942 Y128.980 E39.89822
G1 X82.857 Y128.214 E39.99224
G1 X80.886 Y127.189 E40.08626
G1 X79.062 Y125.918 E40.18035
G1 X77.545 Y124.542 E40.26704
G1 X77.415 Y124.426 E40.27441
G1 X76.104 Y122.886 E40.36001
G1 X75.980 Y122.746 E40.36792
G1 X74.761 Y120.873 E40.46251
G1 X73.795 Y118.873 E40.55651
G1 X73.093 Y116.763 E40.65063
G1 X72.668 Y114.583 E40.74463
G1 X72.533 Y112.517 E40.83226
G1 X72.521 Y112.376 E40.83825
G1 X72.655 Y110.275 E40.92735
G1 X72.669 Y110.114 E40.93419
G1 X73.085 Y107.966 E41.02679
G1 X73.785 Y105.857 E41.12084
G1 X74.663 Y104.031 E41.20659
G1 X74.739 Y103.865 E41.21432
G1 X75.959 Y101.991 E41.30896
G1 X77.317 Y100.394 E41.39769
G1 X77.425 Y100.273 E41.40455
G1 X78.939 Y98.895 E41.49120
G1 X79.062 Y98.787 E41.49812
G1 X80.864 Y97.530 E41.59111
G1 X82.832 Y96.502 E41.68508
G1 X84.917 Y95.733 E41.77914
G1 X87.084 Y95.236 E41.87324
G1 X89.067 Y95.045 E41.95755
G1 X89.226 Y95.018 E41.96438
G1 X91.516 Y95.090 E42.06135
G1 X93.709 Y95.444 E42.15537
G1 X95.840 Y96.074 E42.24942
G1 X97.873 Y96.972 E42.34348
G1 X99.775 Y98.122 E42.43755
G1 X101.512 Y99.507 E42.53158
G1 X102.990 Y101.029 E42.62137
G1 X103.098 Y101.151 E42.62827
G1 X104.390 Y102.883 E42.71972
G1 X105.481 Y104.817 E42.81370
G1 X106.236 Y106.676 E42.89862
G1 X106.310 Y106.841 E42.90627
G1 X106.882 Y109.027 E43.00191
G1 X107.163 Y111.190 E43.09422
G1 F2400 E38.09422
G0 F10500 X104.494 Y111.403
;TYPE:WALL-OUTER
G1 F2400 E43.09422
G1 F1200 X104.527 Y112.353 E43.13446
G1 X104.496 Y113.291 E43.17418
G1 X104.258 Y115.142 E43.25316
G1 X103.782 Y116.965 E43.33291
G1 X103.081 Y118.698 E43.41203
G1 X102.156 Y120.345 E43.49197
G1 X101.035 Y121.847 E43.57130
G1 X99.717 Y123.210 E43.65155
G1 X98.265 Y124.369 E43.73018
G1 X96.656 Y125.345 E43.80982
G1 X94.929 Y126.112 E43.88980
G1 X93.141 Y126.642 E43.96873
G1 X91.282 Y126.945 E44.04845
G1 X89.382 Y127.006 E44.12891
G1 X87.543 Y126.830 E44.20709
G1 X85.697 Y126.409 E44.28723
G1 X83.944 Y125.765 E44.36627
G1 X82.270 Y124.894 E44.44614
G1 X80.733 Y123.823 E44.52543
G1 X79.331 Y122.551 E44.60555
G1 X78.113 Y121.121 E44.68505
G1 X77.095 Y119.558 E44.76399
G1 X76.279 Y117.867 E44.84346
G1 X75.685 Y116.084 E44.92300
G1 X75.324 Y114.234 E45.00278
G1 X75.202 Y112.350 E45.08268
G1 X75.321 Y110.483 E45.16186
G1 X75.678 Y108.644 E45.24115
G1 X76.269 Y106.863 E45.32057
G1 X77.090 Y105.155 E45.40077
G1 X78.105 Y103.595 E45.47954
G1 X79.331 Y102.154 E45.55962
G1 X80.722 Y100.889 E45.63920
G1 X82.250 Y99.824 E45.71802
G1 X83.921 Y98.951 E45.79782
G1 X85.678 Y98.302 E45.87709
G1 X87.520 Y97.880 E45.95707
G1 X89.397 Y97.699 E46.03688
G1 X91.258 Y97.757 E46.11568
G1 X93.118 Y98.057 E46.19542
G1 X94.919 Y98.590 E46.27492
G1 X96.637 Y99.349 E46.35441
G1 X98.238 Y100.317 E46.43359
G1 X99.712 Y101.492 E46.51337
G1 X101.026 Y102.846 E46.59323
G1 X102.143 Y104.343 E46.67228
G1 X103.070 Y105.987 E46.75216
G1 X103.781 Y107.739 E46.83219
G1 X104.253 Y109.541 E46.91103
G1 X104.494 Y111.403 E46.99049
G0 F10500 X104.258 Y111.418
;TYPE:SKIN
G1 F1200 X90.818 Y97.978 E47.79494
G0 F10500 X89.833 Y97.948
G1 F1200 X104.289 Y112.404 E48.66020
G0 F10500 X104.254 Y113.323
G1 F1200 X88.913 Y97.982 E49.57843
G0 F10500 X88.041 Y98.065
G1 F1200 X104.145 Y114.169 E50.54234
G0 F10500 X104.036 Y115.015
G1 F1200 X87.213 Y98.191 E51.54930
G0 F10500 X86.436 Y98.369
G1 F1200 X103.847 Y115.780 E52.59144
G0 F10500 X103.650 Y116.538
G1 F1200 X85.668 Y98.556 E53.66774
G0 F10500 X84.971 Y98.813
G1 F1200 X103.411 Y117.253 E54.77147
G0 F10500 X103.136 Y117.933
G1 F1200 X84.274 Y99.071 E55.90045
G0 F10500 X83.621 Y99.373
G1 F1200 X102.859 Y118.610 E57.05191
G0 F10500 X102.515 Y119.221
G1 F1200 X82.995 Y99.701 E58.22027
G0 F10500 X83.087 Y99.879
G0 X91.860 Y98.296
G0 X91.892 Y98.097
G1 F1200 X104.116 Y110.322 E58.95197
G0 F10500 X103.910 Y109.161
G1 F1200 X93.031 Y98.282 E59.60313
G0 F10500 X94.380 Y98.676
G1 F1200 X103.572 Y107.868 E60.15331
G0 F10500 X103.376 Y107.918
G0 X102.745 Y106.347
G0 X102.931 Y106.273
G1 F1200 X95.968 Y99.310 E60.57008
G0 F10500 X95.886 Y99.495
G0 X98.075 Y100.747
G0 X98.202 Y100.589
G1 F1200 X101.534 Y103.922 E60.76955
G1 F2400 E55.76955
G0 F10500 X102.172 Y119.833
G1 F2400 E60.76955
G1 F1200 X82.368 Y100.028 E61.95494
G0 F10500 X81.805 Y100.421
G1 F1200 X101.804 Y120.420 E63.15198
G0 F10500 X101.396 Y120.966
G1 F1200 X81.243 Y100.812 E64.35827
G0 F10500 X80.702 Y101.226
G1 F1200 X100.989 Y121.514 E65.57257
G0 F10500 X100.540 Y122.019
G1 F1200 X80.202 Y101.681 E66.78990
G0 F10500 X79.701 Y102.135
G1 F1200 X100.071 Y122.504 E68.00911
G0 F10500 X99.601 Y122.989
G1 F1200 X79.237 Y102.625 E69.22799
G0 F10500 X78.799 Y103.142
G1 F1200 X99.076 Y123.419 E70.44167
G0 F10500 X98.545 Y123.842
G1 F1200 X78.360 Y103.657 E71.64984
G0 F10500 X77.974 Y104.226
G1 F1200 X98.000 Y124.252 E72.84849
G0 F10500 X97.406 Y124.612
G1 F1200 X77.597 Y104.804 E74.03413
G0 F10500 X77.234 Y105.395
G1 F1200 X96.811 Y124.972 E75.20590
G0 F10500 X96.179 Y125.295
G1 F1200 X76.924 Y106.040 E76.35841
G0 F10500 X76.615 Y106.685
G1 F1200 X95.518 Y125.589 E77.48988
G0 F10500 X94.858 Y125.883
G1 F1200 X76.347 Y107.372 E78.59785
G0 F10500 X76.109 Y108.089
G1 F1200 X94.123 Y126.103 E79.67607
G0 F10500 X93.388 Y126.322
G1 F1200 X75.883 Y108.818 E80.72380
G0 F10500 X75.729 Y109.617
G1 F1200 X92.601 Y126.490 E81.73370
G0 F10500 X91.780 Y126.623
G1 F1200 X75.573 Y110.416 E82.70377
G0 F10500 X75.504 Y111.302
G1 F1200 X90.921 Y126.719 E83.62655
G0 F10500 X89.995 Y126.748
G1 F1200 X75.446 Y112.199 E84.49738
G0 F10500 X75.492 Y113.200
G1 F1200 X89.026 Y126.734 E85.30745
G0 F10500 X87.971 Y126.633
G1 F1200 X75.562 Y114.224 E86.05019
G0 F10500 X75.794 Y115.410
G1 F1200 X86.800 Y126.417 E86.70898
G0 F10500 X85.521 Y126.091
G1 F1200 X76.144 Y116.715 E87.27021
G0 F10500 X76.335 Y116.653
G0 X76.910 Y118.166
G0 X76.728 Y118.253
G1 F1200 X84.002 Y125.528 E87.70563
G0 F10500 X84.095 Y125.351
G0 X81.908 Y124.108
G0 X81.792 Y124.272
G1 F1200 X77.933 Y120.413 E87.93661
G0 F10500 X78.858 Y119.813
G1 F2400 E82.93661
G0 F10500 X129.290 Y111.617
;TYPE:WALL-OUTER
G1 F2400 E87.93661
G1 F1200 X129.168 Y109.732 E88.01655
G1 X129.287 Y107.865 E88.09573
G1 X129.644 Y106.027 E88.17498
G1 X130.235 Y104.245 E88.25444
G1 X131.053 Y102.544 E88.33432
G1 X132.075 Y100.972 E88.41368
G1 X133.295 Y99.536 E88.49343
G1 X134.688 Y98.272 E88.57304
G1 X136.216 Y97.206 E88.65189
G1 X137.887 Y96.333 E88.73169
G1 X139.644 Y95.684 E88.81096
G1 X141.485 Y95.263 E88.89089
G1 X143.363 Y95.081 E88.97075
G1 X145.226 Y95.140 E89.04964
G1 X147.082 Y95.439 E89.12920
G1 X148.885 Y95.972 E89.20878
G1 X150.609 Y96.734 E89.28855
G1 X152.206 Y97.703 E89.36761
G1 X153.678 Y98.875 E89.44725
G1 X154.986 Y100.223 E89.52674
G1 X156.109 Y101.725 E89.60612
G1 X157.036 Y103.369 E89.68600
G1 X157.746 Y105.120 E89.76597
G1 X158.219 Y106.925 E89.84494
G1 X158.460 Y108.785 E89.92432
G1 X158.493 Y109.735 E89.96455
G1 X158.462 Y110.673 E90.00427
G1 X158.224 Y112.525 E90.08330
G1 X157.747 Y114.348 E90.16306
G1 X157.047 Y116.081 E90.24216
G1 X156.122 Y117.727 E90.32207
G1 X155.001 Y119.230 E90.40143
G1 X153.687 Y120.588 E90.48141
G1 X152.224 Y121.754 E90.56059
G1 X150.622 Y122.727 E90.63991
G1 X148.895 Y123.494 E90.71989
G1 X147.106 Y124.024 E90.79886
G1 X145.248 Y124.327 E90.87854
G1 X143.348 Y124.389 E90.95900
G1 X141.509 Y124.212 E91.03719
G1 X139.663 Y123.791 E91.11733
G1 X137.910 Y123.148 E91.19635
G1 X136.236 Y122.277 E91.27622
G1 X134.699 Y121.206 E91.35551
G1 X133.296 Y119.934 E91.43566
G1 X132.082 Y118.508 E91.51492
G1 X131.058 Y116.934 E91.59440
G1 X130.245 Y115.249 E91.67358
G1 X129.651 Y113.467 E91.75308
G1 X129.290 Y111.617 E91.83285
G0 F10500 X129.590 Y111.931
;TYPE:SKIN
G1 F1200 X141.647 Y123.988 E92.55452
G0 F10500 X142.704 Y124.090
G1 F1200 X129.475 Y110.861 E93.34634
G0 F10500 X129.409 Y109.841
G1 F1200 X143.708 Y124.140 E94.20221
G0 F10500 X144.633 Y124.110
G1 F1200 X129.453 Y108.930 E95.11080
G0 F10500 X129.511 Y108.033
G1 F1200 X145.521 Y124.043 E96.06908
G0 F10500 X146.341 Y123.909
G1 F1200 X129.652 Y107.220 E97.06800
G0 F10500 X129.807 Y106.420
G1 F1200 X147.151 Y123.764 E98.10612
G0 F10500 X147.887 Y123.545
G1 F1200 X130.010 Y105.668 E99.17614
G0 F10500 X130.247 Y104.951
G1 F1200 X148.623 Y123.327 E100.27604
G0 F10500 X149.303 Y123.052
G1 F1200 X130.495 Y104.245 E101.40176
G0 F10500 X130.805 Y103.600
G1 F1200 X149.964 Y122.759 E102.54851
G0 F10500 X150.614 Y122.454
G1 F1200 X131.115 Y102.955 E103.71562
G0 F10500 X131.461 Y102.347
G1 F1200 X151.207 Y122.093 E104.89752
G0 F10500 X151.801 Y121.732
G1 F1200 X131.837 Y101.768 E106.09246
G0 F10500 X132.214 Y101.191
G1 F1200 X152.362 Y121.338 E107.29838
G0 F10500 X152.894 Y120.915
G1 F1200 X132.644 Y100.665 E108.51044
G0 F10500 X133.082 Y100.149
G1 F1200 X153.425 Y120.492 E109.72807
G0 F10500 X153.908 Y120.020
G1 F1200 X133.530 Y99.642 E110.94779
G0 F10500 X134.030 Y99.188
G1 F1200 X154.377 Y119.535 E112.16566
G0 F10500 X154.843 Y119.047
G1 F1200 X134.530 Y98.734 E113.38149
G0 F10500 X135.055 Y98.304
G1 F1200 X155.250 Y118.499 E114.59026
G0 F10500 X155.658 Y117.953
G1 F1200 X135.617 Y97.911 E115.78984
G0 F10500 X136.179 Y97.519
G1 F1200 X156.043 Y117.383 E116.97879
G0 F10500 X156.387 Y116.772
G1 F1200 X136.788 Y97.173 E118.15189
G0 F10500 X137.415 Y96.846
G1 F1200 X156.730 Y116.160 E119.30795
G0 F10500 X157.025 Y115.501
G1 F1200 X138.048 Y96.524 E120.44382
G0 F10500 X138.745 Y96.266
G1 F1200 X157.300 Y114.822 E121.55446
G0 F10500 X157.560 Y114.127
G1 F1200 X139.442 Y96.009 E122.63891
G0 F10500 X140.190 Y95.802
G1 F1200 X157.758 Y113.370 E123.69043
G0 F10500 X157.956 Y112.613
G1 F1200 X140.966 Y95.624 E124.70734
G0 F10500 X141.769 Y95.472
G1 F1200 X158.080 Y111.783 E125.68363
G0 F10500 X158.189 Y110.937
G1 F1200 X142.640 Y95.388 E126.61431
G0 F10500 X143.529 Y95.323
G1 F1200 X158.246 Y110.039 E127.49517
G0 F10500 X158.233 Y109.072
G1 F1200 X144.514 Y95.354 E128.31628
G0 F10500 X145.545 Y95.430
G1 F1200 X158.121 Y108.005 E129.06899
G0 F10500 X157.967 Y106.897
G1 F1200 X146.684 Y95.614 E129.74433
G0 F10500 X147.974 Y95.949
G1 F1200 X157.628 Y105.604 E130.32220
G0 F10500 X157.434 Y105.654
G0 X156.888 Y104.170
G0 X157.075 Y104.096
G1 F1200 X149.466 Y96.486 E130.77766
G0 F10500 X149.384 Y96.670
G0 X151.356 Y97.698
G0 X151.460 Y97.526
G1 F1200 X156.067 Y102.133 E131.05342
G1 F2400 E126.05342
G0 F10500 X140.427 Y123.722
G1 F2400 E131.05342
G1 F1200 X129.822 Y113.117 E131.68818
G0 F10500 X130.240 Y114.490
G1 F1200 X139.073 Y123.323 E132.21687
G0 F10500 X139.142 Y123.135
G0 X137.518 Y122.452
G0 X137.425 Y122.629
G1 F1200 X130.936 Y116.140 E132.60527
G0 F10500 X131.119 Y116.052
G0 X132.786 Y118.661
G0 X132.632 Y118.791
G1 F1200 X134.898 Y121.057 E132.74090
G0 F10500 X135.529 Y120.153
G1 F2400 E127.74090
G0 F10500 X180.090 Y111.576
;TYPE:WALL-OUTER
G1 F2400 E132.74090
G1 F1200 X179.967 Y109.692 E132.82081
G1 X180.087 Y107.825 E132.89999
G1 X180.444 Y105.986 E132.97928
G1 X181.035 Y104.205 E133.05870
G1 X181.853 Y102.503 E133.13862
G1 X182.875 Y100.932 E133.21794
G1 X184.095 Y99.496 E133.29769
G1 X185.488 Y98.231 E133.37733
G1 X187.016 Y97.166 E133.45616
G1 X188.687 Y96.293 E133.53596
G1 X190.451 Y95.641 E133.61555
G1 X192.278 Y95.223 E133.69487
G1 X194.163 Y95.041 E133.77503
G1 X196.024 Y95.099 E133.85383
G1 X197.883 Y95.399 E133.93353
G1 X199.685 Y95.932 E134.01306
G1 X201.403 Y96.691 E134.09255
G1 X203.003 Y97.659 E134.17170
G1 X204.478 Y98.834 E134.25151
G1 X205.792 Y100.188 E134.33137
G1 X206.909 Y101.685 E134.41042
G1 X207.836 Y103.329 E134.49030
G1 X208.546 Y105.079 E134.57023
G1 X209.019 Y106.885 E134.64925
G1 X209.260 Y108.745 E134.72863
G1 X209.292 Y109.695 E134.76886
G1 X209.262 Y110.634 E134.80862
G1 X209.024 Y112.484 E134.88756
G1 X208.547 Y114.308 E134.96736
G1 X207.847 Y116.040 E135.04642
G1 X206.922 Y117.687 E135.12637
G1 X205.801 Y119.189 E135.20569
G1 X204.483 Y120.552 E135.28594
G1 X203.030 Y121.711 E135.36461
G1 X201.422 Y122.687 E135.44422
G1 X199.695 Y123.454 E135.52419
G1 X197.906 Y123.984 E135.60316
G1 X196.048 Y124.287 E135.68284
G1 X194.148 Y124.348 E135.76330
G1 X192.308 Y124.172 E135.84153
G1 X190.463 Y123.751 E135.92162
G1 X188.710 Y123.107 E136.00066
G1 X187.036 Y122.236 E136.08053
G1 X185.499 Y121.165 E136.15982
G1 X184.095 Y119.893 E136.24000
G1 X182.882 Y118.468 E136.31920
G1 X181.858 Y116.894 E136.39868
G1 X181.045 Y115.209 E136.47786
G1 X180.451 Y113.427 E136.55736
G1 X180.090 Y111.576 E136.63718
G0 F10500 X180.292 Y111.085
;TYPE:SKIN
G1 F1200 X193.230 Y124.022 E137.41155
G0 F10500 X194.269 Y124.107
G1 F1200 X180.225 Y110.063 E138.25215
G0 F10500 X180.238 Y109.122
G1 F1200 X195.194 Y124.078 E139.14734
G0 F10500 X196.108 Y124.037
G1 F1200 X180.296 Y108.225 E140.09377
G0 F10500 X180.411 Y107.386
G1 F1200 X196.929 Y123.903 E141.08242
G0 F10500 X197.750 Y123.769
G1 F1200 X180.566 Y106.586 E142.11093
G0 F10500 X180.748 Y105.813
G1 F1200 X198.497 Y123.562 E143.17330
G0 F10500 X199.233 Y123.344
G1 F1200 X180.986 Y105.097 E144.26547
G0 F10500 X181.224 Y104.380
G1 F1200 X199.933 Y123.088 E145.38526
G0 F10500 X199.852 Y122.905
G0 X192.189 Y123.697
G0 X192.144 Y123.892
G1 F1200 X180.450 Y112.198 E146.08520
G0 F10500 X180.686 Y113.388
G1 F1200 X190.908 Y123.610 E146.69704
G0 F10500 X189.484 Y123.140
G1 F1200 X181.163 Y114.819 E147.19509
G0 F10500 X181.354 Y114.757
G0 X182.150 Y116.490
G0 X181.966 Y116.577
G1 F1200 X187.709 Y122.320 E147.53884
G1 F2400 E142.53884
G0 F10500 X200.594 Y122.795
G1 F2400 E147.53884
G1 F1200 X181.525 Y103.726 E148.68021
G0 F10500 X181.835 Y103.082
G1 F1200 X201.255 Y122.502 E149.84259
G0 F10500 X201.854 Y122.147
G1 F1200 X182.163 Y102.455 E151.02122
G0 F10500 X182.539 Y101.877
G1 F1200 X202.448 Y121.786 E152.21287
G0 F10500 X203.027 Y121.410
G1 F1200 X182.916 Y101.299 E153.41661
G0 F10500 X183.330 Y100.759
G1 F1200 X203.558 Y120.986 E154.62733
G0 F10500 X204.089 Y120.563
G1 F1200 X183.769 Y100.242 E155.84361
G0 F10500 X184.207 Y99.726
G1 F1200 X204.586 Y120.105 E157.06339
G0 F10500 X205.056 Y119.620
G1 F1200 X184.700 Y99.265 E158.28176
G0 F10500 X185.200 Y98.810
G1 F1200 X205.525 Y119.135 E159.49831
G0 F10500 X205.945 Y118.600
G1 F1200 X185.708 Y98.364 E160.70956
G0 F10500 X186.271 Y97.972
G1 F1200 X206.353 Y118.054 E161.91157
G0 F10500 X206.755 Y117.501
G1 F1200 X186.834 Y97.580 E163.10394
G0 F10500 X187.427 Y97.218
G1 F1200 X207.098 Y116.889 E164.28134
G0 F10500 X207.441 Y116.278
G1 F1200 X188.053 Y96.890 E165.44181
G0 F10500 X188.680 Y96.562
G1 F1200 X207.755 Y115.637 E166.58354
G0 F10500 X208.030 Y114.957
G1 F1200 X189.366 Y96.293 E167.70067
G0 F10500 X190.063 Y96.036
G1 F1200 X208.305 Y114.278 E168.79254
G0 F10500 X208.507 Y113.525
G1 F1200 X190.788 Y95.807 E169.85308
G0 F10500 X191.565 Y95.629
G1 F1200 X208.704 Y112.768 E170.87893
G0 F10500 X208.852 Y111.961
G1 F1200 X192.343 Y95.453 E171.86704
G0 F10500 X193.214 Y95.369
G1 F1200 X208.962 Y111.116 E172.80960
G0 F10500 X209.037 Y110.237
G1 F1200 X194.085 Y95.285 E173.70455
G0 F10500 X195.060 Y95.305
G1 F1200 X209.041 Y109.286 E174.54138
G0 F10500 X208.957 Y108.248
G1 F1200 X196.051 Y95.342 E175.31387
G0 F10500 X197.190 Y95.526
G1 F1200 X208.815 Y107.152 E176.00971
G0 F10500 X208.516 Y105.898
G1 F1200 X198.423 Y95.805 E176.61383
G0 F10500 X199.825 Y96.252
G1 F1200 X208.045 Y104.472 E177.10583
G0 F10500 X207.858 Y104.547
G0 X207.011 Y102.757
G0 X207.186 Y102.659
G1 F1200 X201.632 Y97.104 E177.43830
G0 F10500 X201.059 Y98.047
;LAYER:1
G1 F2400 E172.43830
G0 F10500 X104.580 Y111.391 Z0.620
;TYPE:WALL-OUTER
G1 F2400 E177.43830
G1 F1380 X104.614 Y112.352 E177.45488
G1 X104.583 Y113.295 E177.47115
G1 X104.344 Y115.151 E177.50342
G1 X103.868 Y116.979 E177.53599
G1 X103.158 Y118.736 E177.56866
G1 X102.237 Y120.378 E177.60113
G1 X101.095 Y121.912 E177.63410
G1 X99.790 Y123.259 E177.66644
G1 X98.323 Y124.434 E177.69885
G1 X96.699 Y125.420 E177.73161
G1 X94.979 Y126.185 E177.76407
G1 X93.164 Y126.726 E177.79672
G1 X91.299 Y127.030 E177.82931
G1 X89.393 Y127.093 E177.86219
G1 X87.511 Y126.913 E177.89479
G1 X85.686 Y126.496 E177.92707
G1 X83.911 Y125.845 E177.95967
G1 X82.235 Y124.974 E177.99224
G1 X80.684 Y123.895 E178.02482
G1 X79.282 Y122.625 E178.05744
G1 X78.057 Y121.190 E178.08997
G1 X77.023 Y119.608 E178.12256
G1 X76.193 Y117.889 E178.15547
G1 X75.597 Y116.093 E178.18810
G1 X75.239 Y114.258 E178.22034
G1 X75.115 Y112.352 E178.25327
G1 X75.233 Y110.486 E178.28551
G1 X75.592 Y108.631 E178.31809
G1 X76.185 Y106.837 E178.35067
G1 X77.008 Y105.122 E178.38347
G1 X78.028 Y103.555 E178.41571
G1 X79.259 Y102.104 E178.44852
G1 X80.652 Y100.835 E178.48102
G1 X82.198 Y99.754 E178.51354
G1 X83.882 Y98.873 E178.54631
G1 X85.643 Y98.222 E178.57869
G1 X87.492 Y97.797 E178.61140
G1 X89.391 Y97.612 E178.64430
G1 X91.272 Y97.671 E178.67675
G1 X93.126 Y97.969 E178.70913
G1 X94.939 Y98.505 E178.74173
G1 X96.671 Y99.270 E178.77438
G1 X98.282 Y100.242 E178.80682
G1 X99.769 Y101.426 E178.83960
G1 X101.079 Y102.774 E178.87201
G1 X102.224 Y104.305 E178.90497
G1 X103.142 Y105.936 E178.93724
G1 X103.854 Y107.686 E178.96982
G1 X104.336 Y109.517 E179.00247
G1 X104.580 Y111.391 E179.03506
G0 F10500 X104.412 Y111.609
;TYPE:SKIN
G1 F1620 X89.130 Y126.891 E179.40771
G0 F10500 X88.484 Y126.829
G1 F1620 X104.347 Y110.966 E179.79454
G0 F10500 X104.266 Y110.340
G1 F1620 X87.838 Y126.767 E180.19512
G0 F10500 X87.230 Y126.668
G1 F1620 X104.184 Y109.715 E180.60854
G0 F10500 X104.054 Y109.138
G1 F1620 X86.655 Y126.536 E181.03281
G0 F10500 X86.080 Y126.405
G1 F1620 X103.907 Y108.578 E181.46753
G0 F10500 X103.760 Y108.018
G1 F1620 X85.528 Y126.250 E181.91212
G0 F10500 X85.010 Y126.060
G1 F1620 X103.584 Y107.487 E182.36504
G0 F10500 X103.379 Y106.985
G1 F1620 X84.492 Y125.871 E182.82559
G0 F10500 X83.976 Y125.681
G1 F1620 X103.174 Y106.482 E183.29375
G0 F10500 X102.966 Y105.983
G1 F1620 X83.510 Y125.439 E183.76819
G0 F10500 X83.045 Y125.197
G1 F1620 X102.712 Y105.530 E184.24778
G0 F10500 X102.457 Y105.078
G1 F1620 X82.580 Y124.955 E184.73249
G0 F10500 X82.136 Y124.691
G1 F1620 X102.203 Y104.625 E185.22181
G0 F10500 X101.924 Y104.197
G1 F1620 X81.719 Y124.402 E185.71452
G0 F10500 X81.302 Y124.112
G1 F1620 X101.622 Y103.791 E186.21004
G0 F10500 X101.319 Y103.387
G1 F1620 X80.885 Y123.822 E186.70834
G0 F10500 X80.504 Y123.496
G1 F1620 X101.017 Y102.983 E187.20856
G0 F10500 X100.679 Y102.613
G1 F1620 X80.133 Y123.159 E187.70958
G0 F10500 X80.251 Y123.030
G0 X89.820 Y126.729
G0 X89.825 Y126.903
G1 F1620 X104.436 Y112.292 E188.06587
G0 F10500 X104.417 Y113.018
G1 F1620 X90.555 Y126.879 E188.40389
G0 F10500 X91.287 Y126.854
G1 F1620 X104.341 Y113.801 E188.72220
G0 F10500 X104.236 Y114.613
G1 F1620 X92.132 Y126.717 E189.01736
G0 F10500 X92.978 Y126.578
G1 F1620 X104.076 Y115.479 E189.28800
G0 F10500 X103.828 Y116.435
G1 F1620 X93.958 Y126.305 E189.52868
G0 F10500 X94.977 Y125.992
G1 F1620 X103.465 Y117.504 E189.73567
G0 F10500 X102.975 Y118.702
G1 F1620 X96.249 Y125.428 E189.89968
G0 F10500 X96.179 Y125.269
G0 X97.810 Y124.337
G0 X97.898 Y124.486
G1 F1620 X102.049 Y120.335 E190.00090
G1 F2400 E185.00090
G0 F10500 X100.331 Y102.254
G1 F2400 E190.00090
G1 F1620 X79.762 Y122.823 E190.50249
G0 F10500 X79.393 Y122.485
G1 F1620 X99.982 Y101.896 E191.00455
G0 F10500 X99.632 Y101.539
G1 F1620 X79.067 Y122.103 E191.50603
G0 F10500 X78.742 Y121.722
G1 F1620 X99.238 Y101.226 E192.00583
G0 F10500 X98.845 Y100.912
G1 F1620 X78.416 Y121.340 E192.50398
G0 F10500 X78.106 Y120.944
G1 F1620 X98.451 Y100.599 E193.00010
G0 F10500 X98.043 Y100.300
G1 F1620 X77.827 Y120.516 E193.49307
G0 F10500 X77.547 Y120.088
G1 F1620 X97.601 Y100.034 E193.98210
G1 F2400 E188.98210
G0 F10500 X81.915 Y100.164
G1 F2400 E193.98210
G1 F1620 X77.699 Y104.380 E194.08491
G0 F10500 X77.845 Y104.476
G0 X76.932 Y106.088
G0 X76.774 Y106.012
G1 F1620 X83.537 Y99.249 E194.24982
G0 F10500 X84.760 Y98.733
G1 F1620 X76.226 Y107.268 E194.45794
G0 F10500 X75.876 Y108.324
G1 F1620 X85.846 Y98.355 E194.70105
G0 F10500 X86.765 Y98.142
G1 F1620 X75.646 Y109.261 E194.97219
G0 F10500 X75.477 Y110.138
G1 F1620 X87.660 Y97.955 E195.26928
G0 F10500 X88.443 Y97.879
G1 F1620 X75.379 Y110.942 E195.58783
G0 F10500 X75.333 Y111.696
G1 F1620 X89.226 Y97.803 E195.92662
G0 F10500 X89.933 Y97.803
G1 F1620 X75.296 Y112.439 E196.28353
G0 F10500 X75.339 Y113.104
G1 F1620 X90.619 Y97.824 E196.65614
G0 F10500 X91.299 Y97.851
G1 F1620 X75.381 Y113.769 E197.04431
G0 F10500 X75.446 Y114.411
G1 F1620 X91.909 Y97.949 E197.44575
G0 F10500 X92.517 Y98.047
G1 F1620 X75.562 Y115.003 E197.85921
G0 F10500 X75.678 Y115.594
G1 F1620 X93.122 Y98.149 E198.28460
G0 F10500 X93.669 Y98.310
G1 F1620 X75.808 Y116.171 E198.72015
G0 F10500 X75.984 Y116.702
G1 F1620 X94.214 Y98.471 E199.16470
G0 F10500 X94.760 Y98.632
G1 F1620 X76.160 Y117.233 E199.61828
G0 F10500 X76.336 Y117.764
G1 F1620 X95.263 Y98.837 E200.07982
G0 F10500 X95.753 Y99.054
G1 F1620 X76.561 Y118.246 E200.54783
G0 F10500 X76.791 Y118.723
G1 F1620 X96.243 Y99.271 E201.02217
G0 F10500 X96.720 Y99.501
G1 F1620 X77.021 Y119.200 E201.50254
G0 F10500 X77.267 Y119.661
G1 F1620 X97.160 Y99.768 E201.98763
G0 F10500 X96.604 Y100.689
G1 F2400 E196.98763
G0 F10500 X129.199 Y107.870
;TYPE:WALL-OUTER
G1 F2400 E201.98763
G1 F1620 X129.558 Y106.013 E202.02025
G1 X130.151 Y104.219 E202.05283
G1 X130.967 Y102.520 E202.08533
G1 X131.997 Y100.932 E202.11796
G1 X133.224 Y99.486 E202.15066
G1 X134.618 Y98.218 E202.18316
G1 X136.164 Y97.136 E202.21569
G1 X137.848 Y96.255 E202.24846
G1 X139.609 Y95.604 E202.28084
G1 X141.458 Y95.180 E202.31355
G1 X143.357 Y94.994 E202.34645
G1 X145.238 Y95.054 E202.37890
G1 X147.091 Y95.351 E202.41126
G1 X148.905 Y95.887 E202.44387
G1 X150.637 Y96.652 E202.47652
G1 X152.247 Y97.625 E202.50896
G1 X153.735 Y98.808 E202.54174
G1 X155.045 Y100.157 E202.57416
G1 X156.190 Y101.687 E202.60711
G1 X157.108 Y103.318 E202.63939
G1 X157.819 Y105.069 E202.67197
G1 X158.302 Y106.899 E202.70461
G1 X158.546 Y108.773 E202.73719
G1 X158.580 Y109.734 E202.75377
G1 X158.549 Y110.677 E202.77004
G1 X158.310 Y112.535 E202.80234
G1 X157.832 Y114.365 E202.83496
G1 X157.126 Y116.117 E202.86753
G1 X156.203 Y117.760 E202.90002
G1 X155.061 Y119.295 E202.93301
G1 X153.756 Y120.642 E202.96535
G1 X152.288 Y121.816 E202.99776
G1 X150.665 Y122.802 E203.03051
G1 X148.945 Y123.567 E203.06297
G1 X147.129 Y124.108 E203.09564
G1 X145.265 Y124.412 E203.12821
G1 X143.359 Y124.476 E203.16109
G1 X141.478 Y124.295 E203.19367
G1 X139.652 Y123.878 E203.22597
G1 X137.876 Y123.228 E203.25858
G1 X136.201 Y122.357 E203.29113
G1 X134.650 Y121.278 E203.32371
G1 X133.247 Y120.008 E203.35634
G1 X132.022 Y118.572 E203.38889
G1 X130.990 Y116.990 E203.42146
G1 X130.159 Y115.271 E203.45438
G1 X129.563 Y113.476 E203.48700
G1 X129.205 Y111.641 E203.51923
G1 X129.081 Y109.734 E203.55218
G1 X129.199 Y107.870 E203.58439
G0 F10500 X129.378 Y107.855
;TYPE:SKIN
G1 F1620 X141.924 Y95.309 E203.89033
G0 F10500 X142.707 Y95.233
G1 F1620 X129.327 Y108.613 E204.21660
G0 F10500 X129.280 Y109.368
G1 F1620 X143.475 Y95.173 E204.56275
G0 F10500 X144.160 Y95.194
G1 F1620 X129.278 Y110.077 E204.92567
G0 F10500 X129.321 Y110.741
G1 F1620 X144.846 Y95.216 E205.30425
G0 F10500 X145.497 Y95.272
G1 F1620 X129.363 Y111.406 E205.69768
G0 F10500 X129.456 Y112.020
G1 F1620 X146.106 Y95.370 E206.10370
G0 F10500 X146.716 Y95.467
G1 F1620 X129.572 Y112.611 E206.52176
G0 F10500 X129.687 Y113.203
G1 F1620 X147.297 Y95.593 E206.95118
G0 F10500 X147.843 Y95.754
G1 F1620 X129.841 Y113.757 E207.39018
G0 F10500 X130.017 Y114.288
G1 F1620 X148.389 Y95.916 E207.83819
G0 F10500 X148.925 Y96.086
G1 F1620 X130.193 Y114.819 E208.29498
G0 F10500 X130.384 Y115.334
G1 F1620 X149.415 Y96.303 E208.75906
G0 F10500 X149.905 Y96.520
G1 F1620 X130.615 Y115.811 E209.22946
G0 F10500 X130.845 Y116.287
G1 F1620 X150.396 Y96.737 E209.70621
G0 F10500 X150.853 Y96.987
G1 F1620 X131.076 Y116.764 E210.18848
G0 F10500 X131.340 Y117.207
G1 F1620 X151.294 Y97.253 E210.67506
G0 F10500 X151.735 Y97.519
G1 F1620 X131.620 Y117.634 E211.16557
G0 F10500 X131.898 Y118.063
G1 F1620 X152.172 Y97.789 E211.65996
G0 F10500 X152.566 Y98.102
G1 F1620 X132.180 Y118.489 E212.15709
G0 F10500 X132.506 Y118.870
G1 F1620 X152.960 Y98.415 E212.65588
G0 F10500 X153.354 Y98.729
G1 F1620 X132.831 Y119.252 E213.15634
G0 F10500 X133.156 Y119.633
G1 F1620 X153.732 Y99.057 E213.65809
G0 F10500 X154.081 Y99.416
G1 F1620 X133.497 Y120.000 E214.16004
G0 F10500 X133.868 Y120.336
G1 F1620 X154.429 Y99.774 E214.66144
G1 F2400 E209.66144
G0 F10500 X141.081 Y95.445
G1 F2400 E214.66144
G1 F1620 X129.548 Y106.978 E214.94267
G0 F10500 X129.718 Y106.102
G1 F1620 X140.163 Y95.656 E215.19739
G0 F10500 X139.155 Y95.957
G1 F1620 X130.057 Y105.055 E215.41925
G0 F10500 X130.488 Y103.917
G1 F1620 X138.035 Y96.370 E215.60328
G0 F10500 X138.095 Y96.536
G0 X136.666 Y97.268
G0 X136.586 Y97.111
G1 F1620 X131.166 Y102.532 E215.73546
G0 F10500 X131.312 Y102.628
G0 X133.296 Y99.942
G0 X133.162 Y99.829
G1 F1620 X133.731 Y99.260 E215.74934
G1 F2400 E210.74934
G0 F10500 X154.777 Y100.134
G1 F2400 E215.74934
G1 F1620 X134.239 Y120.672 E216.25016
G0 F10500 X134.611 Y121.007
G1 F1620 X155.098 Y100.520 E216.74974
G0 F10500 X155.400 Y100.925
G1 F1620 X135.010 Y121.316 E217.24697
G0 F10500 X135.427 Y121.606
G1 F1620 X155.703 Y101.329 E217.74142
G0 F10500 X156.006 Y101.734
G1 F1620 X135.844 Y121.896 E218.23308
G0 F10500 X136.260 Y122.186
G1 F1620 X156.266 Y102.181 E218.72092
G0 F10500 X156.520 Y102.633
G1 F1620 X136.723 Y122.431 E219.20369
G0 F10500 X137.187 Y122.673
G1 F1620 X156.775 Y103.086 E219.68133
G0 F10500 X157.013 Y103.555
G1 F1620 X137.653 Y122.915 E220.15343
G0 F10500 X138.138 Y123.137
G1 F1620 X157.218 Y104.057 E220.61870
G0 F10500 X157.421 Y104.561
G1 F1620 X138.655 Y123.327 E221.07632
G0 F10500 X139.173 Y123.516
G1 F1620 X157.626 Y105.064 E221.52629
G0 F10500 X157.780 Y105.617
G1 F1620 X139.691 Y123.705 E221.96738
G0 F10500 X140.265 Y123.838
G1 F1620 X157.928 Y106.175 E222.39810
G0 F10500 X158.076 Y106.734
G1 F1620 X140.841 Y123.969 E222.81838
G0 F10500 X141.417 Y124.101
G1 F1620 X158.181 Y107.337 E223.22717
G0 F10500 X158.262 Y107.963
G1 F1620 X142.051 Y124.174 E223.62248
G0 F10500 X142.696 Y124.236
G1 F1620 X158.343 Y108.588 E224.00405
G0 F10500 X158.386 Y109.253
G1 F1620 X143.341 Y124.298 E224.37093
G0 F10500 X144.070 Y124.276
G1 F1620 X158.396 Y109.950 E224.72027
G0 F10500 X158.370 Y110.683
G1 F1620 X144.801 Y124.252 E225.05116
G0 F10500 X145.577 Y124.184
G1 F1620 X158.266 Y111.495 E225.36058
G0 F10500 X158.162 Y112.306
G1 F1620 X146.422 Y124.046 E225.64687
G0 F10500 X147.301 Y123.873
G1 F1620 X157.947 Y113.228 E225.90646
G0 F10500 X157.696 Y114.185
G1 F1620 X148.309 Y123.573 E226.13538
G0 F10500 X149.429 Y123.160
G1 F1620 X157.249 Y115.339 E226.32608
G0 F10500 X157.089 Y115.274
G0 X156.447 Y116.613
G0 X156.598 Y116.698
G1 F1620 X150.752 Y122.544 E226.46864
G0 F10500 X150.662 Y122.396
G0 X152.792 Y120.964
G0 X152.901 Y121.101
G1 F1620 X155.231 Y118.772 E226.52545
G0 F10500 X154.371 Y118.129
G1 F2400 E221.52545
G0 F10500 X180.363 Y113.436
;TYPE:WALL-OUTER
G1 F2400 E226.52545
G1 F1620 X180.005 Y111.600 E226.55770
G1 X179.880 Y109.694 E226.59064
G1 X179.999 Y107.828 E226.62288
G1 X180.358 Y105.973 E226.65546
G1 X180.951 Y104.179 E226.68804
G1 X181.767 Y102.479 E226.72055
G1 X182.797 Y100.891 E226.75319
G1 X184.024 Y99.446 E226.78587
G1 X185.418 Y98.177 E226.81838
G1 X186.964 Y97.096 E226.85091
G1 X188.648 Y96.215 E226.88368
G1 X190.409 Y95.564 E226.91605
G1 X192.257 Y95.139 E226.94875
G1 X194.157 Y94.954 E226.98167
G1 X196.038 Y95.013 E227.01412
G1 X197.891 Y95.311 E227.04648
G1 X199.705 Y95.847 E227.07909
G1 X201.437 Y96.612 E227.11174
G1 X203.047 Y97.584 E227.14417
G1 X204.535 Y98.768 E227.17696
G1 X205.845 Y100.116 E227.20937
G1 X206.990 Y101.647 E227.24234
G1 X207.908 Y103.278 E227.27461
G1 X208.619 Y105.028 E227.30718
G1 X209.102 Y106.859 E227.33983
G1 X209.346 Y108.734 E227.37243
G1 X209.379 Y109.703 E227.38915
G1 X209.349 Y110.637 E227.40526
G1 X209.110 Y112.494 E227.43755
G1 X208.633 Y114.322 E227.47012
G1 X207.924 Y116.078 E227.50278
G1 X207.003 Y117.720 E227.53524
G1 X205.861 Y119.254 E227.56822
G1 X204.556 Y120.601 E227.60056
G1 X203.088 Y121.776 E227.63298
G1 X201.465 Y122.762 E227.66572
G1 X199.745 Y123.527 E227.69818
G1 X197.929 Y124.068 E227.73086
G1 X196.065 Y124.372 E227.76342
G1 X194.159 Y124.435 E227.79630
G1 X192.276 Y124.255 E227.82892
G1 X190.452 Y123.838 E227.86118
G1 X188.677 Y123.187 E227.89378
G1 X187.001 Y122.316 E227.92635
G1 X185.450 Y121.237 E227.95893
G1 X184.047 Y119.967 E227.99156
G1 X182.822 Y118.532 E228.02410
G1 X181.790 Y116.950 E228.05667
G1 X180.959 Y115.231 E228.08959
G1 X180.363 Y113.436 E228.12220
G0 F10500 X180.512 Y113.290
;TYPE:SKIN
G1 F1620 X198.214 Y95.588 E228.55387
G0 F10500 X198.759 Y95.750
G1 F1620 X180.678 Y113.831 E228.99478
G0 F10500 X180.854 Y114.362
G1 F1620 X199.306 Y95.910 E229.44474
G0 F10500 X199.831 Y96.092
G1 F1620 X181.031 Y114.892 E229.90318
G0 F10500 X181.234 Y115.396
G1 F1620 X200.321 Y96.310 E230.36861
G0 F10500 X200.811 Y96.526
G1 F1620 X181.464 Y115.873 E230.84039
G0 F10500 X181.694 Y116.350
G1 F1620 X201.301 Y96.743 E231.31852
G0 F10500 X201.748 Y97.003
G1 F1620 X181.925 Y116.827 E231.80192
G0 F10500 X182.200 Y117.258
G1 F1620 X202.189 Y97.270 E232.28934
G0 F10500 X202.630 Y97.536
G1 F1620 X182.479 Y117.687 E232.78073
G0 F10500 X182.758 Y118.115
G1 F1620 X203.057 Y97.816 E233.27573
G0 F10500 X203.451 Y98.129
G1 F1620 X183.050 Y118.530 E233.77321
G0 F10500 X183.376 Y118.912
G1 F1620 X203.844 Y98.443 E234.27234
G0 F10500 X204.238 Y98.756
G1 F1620 X183.702 Y119.293 E234.77313
G0 F10500 X184.027 Y119.674
G1 F1620 X204.607 Y99.094 E235.27498
G0 F10500 X204.956 Y99.453
G1 F1620 X184.377 Y120.032 E235.77681
G0 F10500 X184.748 Y120.367
G1 F1620 X205.304 Y99.811 E236.27807
G0 F10500 X205.653 Y100.170
G1 F1620 X185.119 Y120.703 E236.77879
G0 F10500 X185.491 Y121.039
G1 F1620 X205.963 Y100.567 E237.27800
G0 F10500 X206.265 Y100.972
G1 F1620 X185.899 Y121.338 E237.77463
G0 F10500 X186.316 Y121.628
G1 F1620 X206.568 Y101.376 E238.26848
G0 F10500 X206.866 Y101.785
G1 F1620 X186.734 Y121.917 E238.75941
G0 F10500 X187.158 Y122.200
G1 F1620 X207.120 Y102.238 E239.24619
G0 F10500 X207.375 Y102.690
G1 F1620 X187.623 Y122.442 E239.72785
G0 F10500 X188.088 Y122.685
G1 F1620 X207.630 Y103.142 E240.20440
G0 F10500 X207.858 Y103.622
G1 F1620 X188.553 Y122.926 E240.67514
G0 F10500 X189.049 Y123.137
G1 F1620 X208.061 Y104.125 E241.13876
G0 F10500 X208.266 Y104.628
G1 F1620 X189.567 Y123.327 E241.59474
G0 F10500 X190.085 Y123.516
G1 F1620 X208.464 Y105.136 E242.04293
G0 F10500 X208.612 Y105.696
G1 F1620 X190.614 Y123.694 E242.48181
G0 F10500 X191.188 Y123.827
G1 F1620 X208.759 Y106.256 E242.91029
G0 F10500 X208.907 Y106.815
G1 F1620 X191.763 Y123.959 E243.32835
G0 F10500 X192.343 Y124.086
G1 F1620 X208.998 Y107.432 E243.73447
G0 F10500 X209.080 Y108.057
G1 F1620 X192.989 Y124.147 E244.12685
G0 F10500 X193.635 Y124.208
G1 F1620 X209.161 Y108.683 E244.50544
G0 F10500 X209.191 Y109.360
G1 F1620 X194.297 Y124.254 E244.86863
G0 F10500 X195.027 Y124.230
G1 F1620 X209.191 Y110.067 E245.21402
G0 F10500 X209.148 Y110.817
G1 F1620 X195.757 Y124.208 E245.54056
G0 F10500 X196.558 Y124.114
G1 F1620 X209.044 Y111.628 E245.84503
G0 F10500 X208.939 Y112.440
G1 F1620 X197.403 Y123.977 E246.12635
G0 F10500 X198.317 Y123.769
G1 F1620 X208.692 Y113.394 E246.37935
G0 F10500 X208.422 Y114.371
G1 F1620 X199.324 Y123.469 E246.60121
G0 F10500 X200.502 Y122.999
G1 F1620 X207.943 Y115.558 E246.78266
G0 F10500 X207.784 Y115.493
G0 X207.049 Y116.923
G0 X207.200 Y117.007
G1 F1620 X201.939 Y122.268 E246.91095
G1 F2400 E241.91095
G0 F10500 X180.397 Y112.698
G1 F2400 E246.91095
G1 F1620 X197.646 Y95.448 E247.33159
G0 F10500 X197.038 Y95.350
G1 F1620 X180.281 Y112.107 E247.74021
G0 F10500 X180.172 Y111.508
G1 F1620 X196.428 Y95.252 E248.13662
G0 F10500 X195.794 Y95.180
G1 F1620 X180.129 Y110.844 E248.51860
G0 F10500 X180.086 Y110.180
G1 F1620 X195.108 Y95.158 E248.88492
G0 F10500 X194.421 Y95.138
G1 F1620 X180.067 Y109.492 E249.23494
G0 F10500 X180.115 Y108.737
G1 F1620 X193.675 Y95.177 E249.56561
G0 F10500 X192.893 Y95.252
G1 F1620 X180.163 Y107.982 E249.87603
G0 F10500 X180.312 Y107.126
G1 F1620 X192.079 Y95.359 E250.16297
G0 F10500 X191.160 Y95.571
G1 F1620 X180.481 Y106.250 E250.42339
G0 F10500 X180.782 Y105.242
G1 F1620 X190.196 Y95.828 E250.65295
G0 F10500 X189.074 Y96.242
G1 F1620 X181.148 Y104.168 E250.84623
G0 F10500 X181.307 Y104.245
G0 X181.959 Y102.887
G0 X181.799 Y102.810
G1 F1620 X187.704 Y96.906 E250.99021
G0 F10500 X187.784 Y97.061
G0 X185.837 Y98.310
G0 X185.737 Y98.166
G1 F1620 X183.103 Y100.800 E251.05444
G0 F10500 X183.921 Y101.498
;LAYER:2
G1 F2400 E246.05444
G0 F10500 X104.579 Y111.383 Z0.840
;TYPE:WALL-OUTER
G1 F2400 E251.05444
G1 F1920 X104.614 Y112.353 E251.07118
G1 X104.583 Y113.295 E251.08743
G1 X104.345 Y115.143 E251.11956
G1 X103.868 Y116.982 E251.15232
G1 X103.152 Y118.751 E251.18522
G1 X102.238 Y120.374 E251.21734
G1 X101.111 Y121.889 E251.24990
G1 X99.788 Y123.262 E251.28278
G1 X98.329 Y124.429 E251.31499
G1 X96.697 Y125.422 E251.34793
G1 X94.985 Y126.181 E251.38022
G1 X93.143 Y126.732 E251.41338
G1 X91.307 Y127.029 E251.44544
G1 X89.391 Y127.093 E251.47850
G1 X87.525 Y126.914 E251.51082
G1 X85.694 Y126.498 E251.54320
G1 X83.918 Y125.848 E251.57581
G1 X82.217 Y124.964 E251.60887
G1 X80.691 Y123.900 E251.64094
G1 X79.288 Y122.630 E251.67357
G1 X78.052 Y121.183 E251.70639
G1 X78.044 Y121.174 E251.70660
G1 X77.028 Y119.613 E251.73871
G1 X76.197 Y117.897 E251.77159
G1 X75.605 Y116.119 E251.80390
G1 X75.241 Y114.266 E251.83646
G1 X75.114 Y112.352 E251.86954
G1 X75.234 Y110.481 E251.90187
G1 X75.235 Y110.468 E251.90209
G1 X75.590 Y108.638 E251.93423
G1 X76.183 Y106.845 E251.96680
G1 X77.004 Y105.130 E251.99958
G1 X78.027 Y103.556 E252.03195
G1 X79.261 Y102.102 E252.06484
G1 X80.646 Y100.840 E252.09714
G1 X82.196 Y99.755 E252.12977
G1 X83.889 Y98.868 E252.16272
G1 X85.640 Y98.224 E252.19489
G1 X87.484 Y97.799 E252.22752
G1 X89.381 Y97.613 E252.26039
G1 X89.394 Y97.612 E252.26062
G1 X91.279 Y97.671 E252.29313
G1 X93.118 Y97.968 E252.32526
G1 X94.958 Y98.511 E252.35834
G1 X96.663 Y99.266 E252.39049
G1 X98.304 Y100.256 E252.42353
G1 X99.758 Y101.417 E252.45562
G1 X101.084 Y102.780 E252.48841
G1 X102.207 Y104.282 E252.52074
G1 X103.138 Y105.929 E252.55337
G1 X103.863 Y107.707 E252.58648
G1 X104.338 Y109.524 E252.61886
G1 X104.579 Y111.383 E252.65118
G0 F10500 X104.363 Y111.080
;TYPE:SKIN
G1 F2100 X91.122 Y97.840 E252.97406
G0 F10500 X90.392 Y97.817
G1 F2100 X104.420 Y111.845 E253.31613
G0 F10500 X104.432 Y112.564
G1 F2100 X89.663 Y97.794 E253.67629
G0 F10500 X88.987 Y97.826
G1 F2100 X104.409 Y113.248 E254.05236
G0 F10500 X104.332 Y113.878
G1 F2100 X88.344 Y97.890 E254.44223
G0 F10500 X87.700 Y97.953
G1 F2100 X104.251 Y114.504 E254.84583
G0 F10500 X104.168 Y115.128
G1 F2100 X87.105 Y98.065 E255.26192
G0 F10500 X86.531 Y98.198
G1 F2100 X104.022 Y115.689 E255.68844
G0 F10500 X103.876 Y116.251
G1 F2100 X85.956 Y98.330 E256.12544
G0 F10500 X85.412 Y98.494
G1 F2100 X103.731 Y116.812 E256.57214
G0 F10500 X103.538 Y117.327
G1 F2100 X84.895 Y98.684 E257.02676
G0 F10500 X84.378 Y98.874
G1 F2100 X103.335 Y117.830 E257.48902
G0 F10500 X103.131 Y118.334
G1 F2100 X83.871 Y99.074 E257.95868
G0 F10500 X83.407 Y99.317
G1 F2100 X102.911 Y118.821 E258.43429
G0 F10500 X102.656 Y119.273
G1 F2100 X82.942 Y99.559 E258.91502
G0 F10500 X82.479 Y99.803
G1 F2100 X102.401 Y119.725 E259.40083
G0 F10500 X102.251 Y119.640
G0 X104.085 Y110.290
G0 X104.258 Y110.269
G1 F2100 X91.944 Y97.954 E259.70112
G0 F10500 X92.787 Y98.091
G1 F2100 X104.135 Y109.438 E259.97783
G0 F10500 X103.884 Y108.480
G1 F2100 X93.735 Y98.331 E260.22532
G0 F10500 X94.738 Y98.627
G1 F2100 X103.577 Y107.466 E260.44086
G0 F10500 X103.090 Y106.272
G1 F2100 X95.965 Y99.147 E260.61460
G0 F10500 X95.894 Y99.307
G0 X97.407 Y100.122
G0 X97.498 Y99.973
G1 F2100 X102.265 Y104.740 E260.73085
G1 F2400 E255.73085
G0 F10500 X102.147 Y120.178
G1 F2400 E260.73085
G1 F2100 X82.043 Y100.074 E261.22109
G0 F10500 X81.627 Y100.366
G1 F2100 X101.855 Y120.594 E261.71436
G0 F10500 X101.553 Y120.999
G1 F2100 X81.211 Y100.657 E262.21040
G0 F10500 X80.795 Y100.947
G1 F2100 X101.252 Y121.405 E262.70926
G0 F10500 X100.947 Y121.806
G1 F2100 X80.421 Y101.281 E263.20978
G0 F10500 X80.051 Y101.618
G1 F2100 X100.600 Y122.167 E263.71088
G0 F10500 X100.253 Y122.527
G1 F2100 X79.681 Y101.955 E264.21253
G0 F10500 X79.320 Y102.301
G1 F2100 X99.907 Y122.888 E264.71455
G0 F10500 X99.545 Y123.233
G1 F2100 X78.995 Y102.683 E265.21567
G0 F10500 X78.671 Y103.066
G1 F2100 X99.151 Y123.547 E265.71509
G0 F10500 X98.758 Y123.861
G1 F2100 X78.346 Y103.449 E266.21285
G0 F10500 X78.042 Y103.852
G1 F2100 X98.365 Y124.175 E266.70843
G0 F10500 X97.942 Y124.458
G1 F2100 X77.764 Y104.280 E267.20048
G0 F10500 X77.484 Y104.708
G1 F2100 X97.502 Y124.725 E267.68861
G0 F10500 X97.063 Y124.993
G1 F2100 X77.206 Y105.136 E268.17283
G0 F10500 X76.967 Y105.605
G1 F2100 X96.623 Y125.261 E268.65214
G0 F10500 X96.133 Y125.478
G1 F2100 X76.739 Y106.084 E269.12507
G0 F10500 X76.510 Y106.562
G1 F2100 X95.643 Y125.696 E269.59165
G0 F10500 X95.153 Y125.913
G1 F2100 X76.296 Y107.055 E270.05149
G0 F10500 X76.120 Y107.587
G1 F2100 X94.634 Y126.100 E270.50295
G0 F10500 X94.090 Y126.263
G1 F2100 X75.945 Y108.118 E270.94542
G0 F10500 X75.769 Y108.649
G1 F2100 X93.545 Y126.426 E271.37891
G0 F10500 X92.990 Y126.577
G1 F2100 X75.650 Y109.238 E271.80174
G0 F10500 X75.535 Y109.830
G1 F2100 X92.382 Y126.676 E272.21254
G0 F10500 X91.773 Y126.775
G1 F2100 X75.420 Y110.422 E272.61132
G0 F10500 X75.369 Y111.078
G1 F2100 X91.149 Y126.858 E272.99612
G0 F10500 X90.465 Y126.881
G1 F2100 X75.327 Y111.743 E273.36526
G0 F10500 X75.293 Y112.416
G1 F2100 X89.780 Y126.903 E273.71853
G0 F10500 X89.053 Y126.883
G1 F2100 X75.342 Y113.173 E274.05287
G0 F10500 X75.393 Y113.930
G1 F2100 X88.270 Y126.808 E274.36689
G0 F10500 X87.477 Y126.722
G1 F2100 X75.515 Y114.759 E274.65860
G0 F10500 X75.688 Y115.640
G1 F2100 X86.562 Y126.514 E274.92376
G0 F10500 X85.626 Y126.285
G1 F2100 X75.953 Y116.611 E275.15965
G0 F10500 X76.305 Y117.671
G1 F2100 X84.511 Y125.877 E275.35976
G0 F10500 X83.208 Y125.280
G1 F2100 X76.924 Y118.997 E275.51298
G0 F10500 X77.082 Y118.922
G0 X78.137 Y120.677
G0 X77.991 Y120.771
G1 F2100 X81.401 Y124.181 E275.59614
G0 F10500 X82.015 Y123.300
G1 F2400 E270.59614
G0 F10500 X129.571 Y113.502
;TYPE:WALL-OUTER
G1 F2400 E275.59614
G1 F2100 X129.207 Y111.649 E275.62870
G1 X129.080 Y109.734 E275.66179
G1 X129.200 Y107.863 E275.69412
G1 X129.201 Y107.850 E275.69435
G1 X129.556 Y106.021 E275.72647
G1 X130.149 Y104.227 E275.75905
G1 X130.970 Y102.513 E275.79182
G1 X131.992 Y100.939 E275.82418
G1 X133.226 Y99.484 E275.85708
G1 X134.612 Y98.223 E275.88939
G1 X136.163 Y97.137 E275.92204
G1 X137.855 Y96.250 E275.95498
G1 X139.606 Y95.606 E275.98715
G1 X141.449 Y95.182 E276.01976
G1 X143.347 Y94.995 E276.05264
G1 X143.360 Y94.994 E276.05287
G1 X145.245 Y95.054 E276.08539
G1 X147.083 Y95.350 E276.11749
G1 X148.924 Y95.893 E276.15058
G1 X150.629 Y96.648 E276.18274
G1 X152.244 Y97.624 E276.21527
G1 X153.726 Y98.800 E276.24790
G1 X155.050 Y100.163 E276.28066
G1 X156.173 Y101.664 E276.31299
G1 X157.104 Y103.311 E276.34561
G1 X157.828 Y105.090 E276.37873
G1 X158.304 Y106.906 E276.41110
G1 X158.545 Y108.765 E276.44342
G1 X158.580 Y109.735 E276.46016
G1 X158.549 Y110.677 E276.47641
G1 X158.311 Y112.527 E276.50857
G1 X157.833 Y114.365 E276.54132
G1 X157.118 Y116.134 E276.57422
G1 X156.204 Y117.756 E276.60632
G1 X155.077 Y119.272 E276.63889
G1 X153.754 Y120.645 E276.67177
G1 X152.289 Y121.814 E276.70409
G1 X150.671 Y122.798 E276.73674
G1 X148.955 Y123.562 E276.76913
G1 X147.108 Y124.114 E276.80237
G1 X145.273 Y124.411 E276.83442
G1 X143.357 Y124.476 E276.86748
G1 X141.491 Y124.296 E276.89980
G1 X139.660 Y123.880 E276.93218
G1 X137.884 Y123.231 E276.96479
G1 X136.183 Y122.347 E276.99784
G1 X134.657 Y121.283 E277.02992
G1 X133.253 Y120.013 E277.06256
G1 X132.017 Y118.565 E277.09539
G1 X132.009 Y118.556 E277.09560
G1 X130.994 Y116.995 E277.12770
G1 X130.163 Y115.279 E277.16058
G1 X129.571 Y113.502 E277.19287
G0 F10500 X129.657 Y113.040
;TYPE:SKIN
G1 F2100 X140.510 Y123.893 E277.45753
G0 F10500 X141.426 Y124.102
G1 F2100 X129.483 Y112.159 E277.74876
G0 F10500 X129.358 Y111.327
G1 F2100 X142.221 Y124.190 E278.06243
G0 F10500 X143.003 Y124.265
G1 F2100 X129.309 Y110.570 E278.39637
G0 F10500 X129.259 Y109.814
G1 F2100 X143.732 Y124.287 E278.74930
G0 F10500 X144.417 Y124.264
G1 F2100 X129.291 Y109.139 E279.11814
G0 F10500 X129.334 Y108.475
G1 F2100 X145.101 Y124.242 E279.50263
G0 F10500 X145.726 Y124.160
G1 F2100 X129.383 Y107.816 E279.90117
G0 F10500 X129.498 Y107.224
G1 F2100 X146.335 Y124.061 E280.31174
G0 F10500 X146.943 Y123.962
G1 F2100 X129.613 Y106.632 E280.73434
G0 F10500 X129.730 Y106.042
G1 F2100 X147.500 Y123.812 E281.16767
G0 F10500 X148.044 Y123.649
G1 F2100 X129.906 Y105.511 E281.60997
G0 F10500 X130.082 Y104.980
G1 F2100 X148.589 Y123.487 E282.06127
G0 F10500 X149.109 Y123.300
G1 F2100 X130.258 Y104.448 E282.52096
G0 F10500 X130.471 Y103.955
G1 F2100 X149.599 Y123.082 E282.98739
G0 F10500 X150.088 Y122.864
G1 F2100 X130.700 Y103.477 E283.46016
G0 F10500 X130.929 Y102.998
G1 F2100 X150.577 Y122.646 E283.93929
G0 F10500 X151.018 Y122.380
G1 F2100 X131.166 Y102.529 E284.42337
G0 F10500 X131.445 Y102.100
G1 F2100 X151.458 Y122.113 E284.91139
G0 F10500 X151.897 Y121.845
G1 F2100 X131.724 Y101.672 E285.40332
G0 F10500 X132.002 Y101.243
G1 F2100 X152.322 Y121.562 E285.89882
G0 F10500 X152.715 Y121.249
G1 F2100 X132.305 Y100.839 E286.39652
G0 F10500 X132.629 Y100.456
G1 F2100 X153.109 Y120.935 E286.89592
G0 F10500 X153.502 Y120.621
G1 F2100 X132.954 Y100.073 E287.39699
G1 F2400 E282.39699
G0 F10500 X129.925 Y114.015
G1 F2400 E287.39699
G1 F2100 X139.570 Y123.660 E287.63218
G0 F10500 X138.457 Y123.254
G1 F2100 X130.278 Y115.075 E287.83163
G0 F10500 X130.903 Y116.408
G1 F2100 X137.147 Y122.651 E287.98388
G0 F10500 X137.228 Y122.497
G0 X135.424 Y121.392
G0 X135.324 Y121.536
G1 F2100 X131.982 Y118.193 E288.06539
G1 F2400 E283.06539
G0 F10500 X133.279 Y99.691
G1 F2400 E288.06539
G1 F2100 X153.865 Y120.278 E288.56740
G0 F10500 X154.212 Y119.918
G1 F2100 X133.639 Y99.344 E289.06909
G0 F10500 X134.009 Y99.007
G1 F2100 X154.559 Y119.557 E289.57021
G0 F10500 X154.905 Y119.196
G1 F2100 X134.379 Y98.671 E290.07073
G0 F10500 X134.753 Y98.337
G1 F2100 X155.212 Y118.796 E290.56963
G0 F10500 X155.513 Y118.390
G1 F2100 X135.169 Y98.046 E291.06572
G0 F10500 X135.585 Y97.755
G1 F2100 X155.815 Y117.985 E291.55903
G0 F10500 X156.107 Y117.569
G1 F2100 X136.001 Y97.464 E292.04931
G0 F10500 X136.436 Y97.191
G1 F2100 X156.362 Y117.118 E292.53523
G0 F10500 X156.617 Y116.665
G1 F2100 X136.900 Y96.948 E293.01603
G0 F10500 X137.363 Y96.705
G1 F2100 X156.872 Y116.213 E293.49175
G0 F10500 X157.092 Y115.727
G1 F2100 X137.827 Y96.462 E293.96154
G0 F10500 X138.334 Y96.261
G1 F2100 X157.296 Y115.223 E294.42393
G0 F10500 X157.500 Y114.720
G1 F2100 X138.851 Y96.071 E294.87869
G0 F10500 X139.367 Y95.880
G1 F2100 X157.693 Y114.206 E295.32558
G0 F10500 X157.838 Y113.644
G1 F2100 X139.910 Y95.716 E295.76276
G0 F10500 X140.485 Y95.583
G1 F2100 X157.985 Y113.084 E296.18951
G0 F10500 X158.130 Y112.522
G1 F2100 X141.060 Y95.451 E296.60578
G0 F10500 X141.653 Y95.338
G1 F2100 X158.215 Y111.899 E297.00964
G0 F10500 X158.295 Y111.273
G1 F2100 X142.297 Y95.274 E297.39976
G0 F10500 X142.941 Y95.211
G1 F2100 X158.374 Y110.644 E297.77610
G0 F10500 X158.396 Y109.960
G1 F2100 X143.614 Y95.177 E298.13658
G0 F10500 X144.344 Y95.200
G1 F2100 X158.386 Y109.242 E298.47900
G0 F10500 X158.331 Y108.480
G1 F2100 X145.074 Y95.223 E298.80227
G0 F10500 X145.894 Y95.336
G1 F2100 X158.225 Y107.667 E299.10297
G0 F10500 X158.106 Y106.841
G1 F2100 X146.737 Y95.472 E299.38020
G0 F10500 X147.681 Y95.709
G1 F2100 X157.854 Y105.882 E299.62828
G0 F10500 X157.548 Y104.868
G1 F2100 X148.683 Y96.003 E299.84445
G0 F10500 X149.905 Y96.519
G1 F2100 X157.063 Y103.676 E300.01899
G0 F10500 X156.902 Y103.740
G0 X156.097 Y102.240
G0 X156.249 Y102.155
G1 F2100 X151.431 Y97.337 E300.13648
G0 F10500 X150.875 Y98.257
G1 F2400 E295.13648
G0 F10500 X180.356 Y105.980
;TYPE:WALL-OUTER
G1 F2400 E300.13648
G1 F2100 X180.949 Y104.187 E300.16904
G1 X181.770 Y102.472 E300.20183
G1 X182.792 Y100.898 E300.23419
G1 X184.026 Y99.444 E300.26707
G1 X185.412 Y98.182 E300.29939
G1 X186.962 Y97.097 E300.33202
G1 X188.655 Y96.210 E300.36497
G1 X190.406 Y95.566 E300.39714
G1 X192.249 Y95.141 E300.42976
G1 X194.147 Y94.955 E300.46264
G1 X194.160 Y94.954 E300.46286
G1 X196.045 Y95.013 E300.49538
G1 X197.883 Y95.310 E300.52749
G1 X199.724 Y95.853 E300.56058
G1 X201.429 Y96.608 E300.59274
G1 X203.040 Y97.580 E300.62518
G1 X204.529 Y98.763 E300.65797
G1 X205.850 Y100.122 E300.69065
G1 X206.973 Y101.624 E300.72299
G1 X207.904 Y103.271 E300.75561
G1 X208.628 Y105.049 E300.78871
G1 X209.104 Y106.866 E300.82110
G1 X209.345 Y108.725 E300.85342
G1 X209.379 Y109.695 E300.87016
G1 X209.349 Y110.637 E300.88641
G1 X209.111 Y112.486 E300.91856
G1 X208.633 Y114.325 E300.95132
G1 X207.927 Y116.071 E300.98379
G1 X207.006 Y117.713 E301.01626
G1 X205.877 Y119.231 E301.04888
G1 X204.554 Y120.604 E301.08175
G1 X203.094 Y121.771 E301.11398
G1 X201.471 Y122.758 E301.14674
G1 X199.755 Y123.522 E301.17913
G1 X197.908 Y124.074 E301.21237
G1 X196.073 Y124.371 E301.24442
G1 X194.157 Y124.435 E301.27747
G1 X192.290 Y124.256 E301.30981
G1 X190.460 Y123.840 E301.34217
G1 X188.684 Y123.190 E301.37478
G1 X186.983 Y122.306 E301.40784
G1 X185.457 Y121.242 E301.43992
G1 X184.053 Y119.972 E301.47256
G1 X182.817 Y118.525 E301.50537
G1 X182.809 Y118.516 E301.50558
G1 X181.794 Y116.955 E301.53769
G1 X180.963 Y115.239 E301.57056
G1 X180.371 Y113.462 E301.60286
G1 X180.007 Y111.608 E301.63544
G1 X179.879 Y109.694 E301.66852
G1 X180.000 Y107.823 E301.70085
G1 X180.001 Y107.810 E301.70107
G1 X180.356 Y105.980 E301.73321
G0 F10500 X180.549 Y105.949
;TYPE:SKIN
G1 F2100 X198.356 Y123.756 E302.16744
G0 F10500 X198.900 Y123.593
G1 F2100 X180.724 Y105.417 E302.61067
G0 F10500 X180.900 Y104.886
G1 F2100 X199.444 Y123.430 E303.06287
G0 F10500 X199.959 Y123.238
G1 F2100 X181.076 Y104.355 E303.52334
G0 F10500 X181.295 Y103.866
G1 F2100 X200.449 Y123.021 E303.99043
G0 F10500 X200.938 Y122.803
G1 F2100 X181.523 Y103.388 E304.46387
G0 F10500 X181.752 Y102.910
G1 F2100 X201.422 Y122.580 E304.94353
G0 F10500 X201.863 Y122.313
G1 F2100 X181.995 Y102.445 E305.42801
G0 F10500 X182.273 Y102.016
G1 F2100 X202.303 Y122.046 E305.91645
G0 F10500 X202.743 Y121.779
G1 F2100 X182.551 Y101.587 E306.40884
G0 F10500 X182.830 Y101.159
G1 F2100 X203.163 Y121.492 E306.90466
G0 F10500 X203.556 Y121.178
G1 F2100 X183.137 Y100.759 E307.40259
G0 F10500 X183.462 Y100.377
G1 F2100 X203.948 Y120.863 E307.90215
G0 F10500 X204.341 Y120.549
G1 F2100 X183.786 Y99.994 E308.40339
G0 F10500 X184.111 Y99.612
G1 F2100 X204.700 Y120.201 E308.90545
G0 F10500 X205.047 Y119.841
G1 F2100 X184.476 Y99.270 E309.40708
G0 F10500 X184.846 Y98.933
G1 F2100 X205.394 Y119.480 E309.90814
G0 F10500 X205.740 Y119.119
G1 F2100 X185.216 Y98.596 E310.40861
G0 F10500 X185.595 Y98.267
G1 F2100 X206.042 Y118.714 E310.90722
G0 F10500 X206.343 Y118.308
G1 F2100 X186.010 Y97.976 E311.40303
G0 F10500 X186.426 Y97.684
G1 F2100 X206.645 Y117.903 E311.89608
G0 F10500 X206.933 Y117.484
G1 F2100 X186.843 Y97.394 E312.38598
G0 F10500 X187.282 Y97.126
G1 F2100 X207.187 Y117.031 E312.87137
G0 F10500 X207.441 Y116.578
G1 F2100 X187.746 Y96.882 E313.35165
G0 F10500 X188.209 Y96.639
G1 F2100 X207.696 Y116.126 E313.82685
G0 F10500 X207.913 Y115.636
G1 F2100 X188.674 Y96.397 E314.29600
G0 F10500 X189.185 Y96.201
G1 F2100 X208.117 Y115.132 E314.75765
G0 F10500 X208.320 Y114.629
G1 F2100 X189.703 Y96.011 E315.21164
G0 F10500 X190.220 Y95.821
G1 F2100 X208.508 Y114.109 E315.65760
G0 F10500 X208.653 Y113.547
G1 F2100 X190.768 Y95.663 E316.09372
G0 F10500 X191.343 Y95.530
G1 F2100 X208.799 Y112.986 E316.51939
G0 F10500 X208.942 Y112.422
G1 F2100 X191.917 Y95.397 E316.93455
G0 F10500 X192.517 Y95.290
G1 F2100 X209.022 Y111.795 E317.33702
G0 F10500 X209.103 Y111.169
G1 F2100 X193.161 Y95.227 E317.72578
G0 F10500 X193.805 Y95.164
G1 F2100 X209.177 Y110.535 E318.10061
G0 F10500 X209.198 Y109.849
G1 F2100 X194.488 Y95.139 E318.45932
G0 F10500 X195.218 Y95.162
G1 F2100 X209.183 Y109.127 E318.79986
G0 F10500 X209.120 Y108.357
G1 F2100 X195.947 Y95.185 E319.12108
G0 F10500 X196.779 Y95.309
G1 F2100 X209.015 Y107.545 E319.41946
G0 F10500 X208.879 Y106.702
G1 F2100 X197.622 Y95.445 E319.69396
G0 F10500 X198.583 Y95.699
G1 F2100 X208.629 Y105.744 E319.93892
G0 F10500 X208.299 Y104.708
G1 F2100 X199.585 Y95.994 E320.15142
G0 F10500 X200.834 Y96.536
G1 F2100 X207.814 Y103.516 E320.32163
G0 F10500 X207.653 Y103.580
G0 X206.803 Y102.034
G0 X206.955 Y101.949
G1 F2100 X202.408 Y97.403 E320.43249
G1 F2400 E315.43249
G0 F10500 X180.425 Y106.532
G1 F2400 E320.43249
G1 F2100 X197.805 Y123.912 E320.85631
G0 F10500 X197.197 Y124.011
G1 F2100 X180.310 Y107.124 E321.26811
G0 F10500 X180.194 Y107.716
G1 F2100 X196.588 Y124.109 E321.66787
G0 F10500 X195.970 Y124.199
G1 F2100 X180.137 Y108.366 E322.05396
G0 F10500 X180.095 Y109.030
G1 F2100 X195.285 Y124.221 E322.42438
G0 F10500 X194.601 Y124.244
G1 F2100 X180.052 Y109.695 E322.77916
G0 F10500 X180.103 Y110.453
G1 F2100 X193.881 Y124.231 E323.11515
G0 F10500 X193.099 Y124.156
G1 F2100 X180.153 Y111.210 E323.43084
G0 F10500 X180.266 Y112.030
G1 F2100 X192.317 Y124.081 E323.72470
G0 F10500 X191.402 Y123.873
G1 F2100 X180.439 Y112.910 E323.99204
G0 F10500 X180.689 Y113.867
G1 F2100 X190.483 Y123.661 E324.23087
G0 F10500 X189.368 Y123.254
G1 F2100 X181.041 Y114.927 E324.43393
G0 F10500 X181.635 Y116.228
G1 F2100 X188.094 Y122.687 E324.59143
G0 F10500 X188.175 Y122.532
G0 X186.457 Y121.514
G0 X186.357 Y121.657
G1 F2100 X182.648 Y117.948 E324.68188
G0 F10500 X183.551 Y117.364
;LAYER:3
G1 F2400 E319.68188
G0 F10500 X104.583 Y113.295 Z1.060
;TweakAtZ V4.0.2.AW: executed at 1.06 mm
M117 Printing... tw@  1.1
M140 S125.000000
M104 S240.000000 T0
;TYPE:WALL-OUTER
G1 F2400 E324.68188
G1 F2520 X104.346 Y115.134 E324.71385
G1 X103.872 Y116.966 E324.74648
G1 X103.166 Y118.719 E324.77906
G1 X102.244 Y120.364 E324.81158
G1 X101.106 Y121.897 E324.84450
G1 X99.802 Y123.247 E324.87687
G1 X98.320 Y124.436 E324.90963
G1 X96.706 Y125.417 E324.94220
G1 X96.688 Y125.428 E324.94256
G1 X94.957 Y126.194 E324.97520
G1 X93.182 Y126.720 E325.00712
G1 X91.314 Y127.028 E325.03977
G1 X89.409 Y127.092 E325.07263
G1 X89.387 Y127.093 E325.07301
G1 X87.534 Y126.915 E325.10511
G1 X85.693 Y126.498 E325.13766
G1 X83.927 Y125.851 E325.17009
G1 X82.217 Y124.964 E325.20331
G1 X80.697 Y123.904 E325.23526
G1 X79.299 Y122.640 E325.26776
G1 X78.065 Y121.199 E325.30047
G1 X77.032 Y119.621 E325.33299
G1 X76.207 Y117.918 E325.36562
G1 X75.603 Y116.112 E325.39846
G1 X75.596 Y116.091 E325.39884
G1 X75.242 Y114.274 E325.43076
G1 X75.116 Y112.372 E325.46362
G1 X75.114 Y112.349 E325.46402
G1 X75.233 Y110.492 E325.49611
G1 X75.235 Y110.468 E325.49652
G1 X75.589 Y108.646 E325.52853
G1 X76.184 Y106.840 E325.56132
G1 X76.191 Y106.819 E325.56170
G1 X76.994 Y105.152 E325.59360
G1 X78.023 Y103.563 E325.62625
G1 X79.245 Y102.121 E325.65884
G1 X80.644 Y100.843 E325.69151
G1 X82.191 Y99.759 E325.72408
G1 X83.873 Y98.876 E325.75684
G1 X83.888 Y98.868 E325.75713
G1 X85.632 Y98.227 E325.78917
G1 X87.492 Y97.797 E325.82209
G1 X89.371 Y97.614 E325.85464
G1 X89.394 Y97.612 E325.85504
G1 X91.254 Y97.670 E325.88713
G1 X91.278 Y97.671 E325.88754
G1 X93.111 Y97.968 E325.91956
G1 X94.921 Y98.500 E325.95209
G1 X96.686 Y99.276 E325.98533
G1 X98.285 Y100.245 E326.01757
G1 X99.776 Y101.431 E326.05042
G1 X101.070 Y102.767 E326.08250
G1 X102.211 Y104.288 E326.11528
G1 X103.138 Y105.928 E326.14776
G1 X103.846 Y107.665 E326.18011
G1 X104.336 Y109.515 E326.21311
G1 X104.578 Y111.374 E326.24543
G1 X104.614 Y112.353 E326.26233
G1 X104.583 Y113.295 E326.27858
G0 F10500 X104.417 Y113.018
;TYPE:SKIN
G1 F2520 X90.557 Y126.877 E326.61655
G0 F10500 X91.288 Y126.853
G1 F2520 X104.341 Y113.801 E326.93483
G0 F10500 X104.236 Y114.612
G1 F2520 X92.135 Y126.714 E327.22993
G0 F10500 X92.982 Y126.574
G1 F2520 X104.075 Y115.481 E327.50044
G0 F10500 X103.828 Y116.435
G1 F2520 X93.956 Y126.307 E327.74117
G0 F10500 X94.976 Y125.994
G1 F2520 X103.465 Y117.505 E327.94818
G0 F10500 X102.973 Y118.704
G1 F2520 X96.245 Y125.432 E328.11224
G0 F10500 X96.176 Y125.273
G0 X97.809 Y124.340
G0 X97.897 Y124.487
G1 F2520 X102.036 Y120.348 E328.21317
G0 F10500 X101.899 Y120.245
G0 X104.260 Y112.298
G0 X104.436 Y112.292
G1 F2520 X89.825 Y126.902 E328.56945
G0 F10500 X89.129 Y126.891
G1 F2520 X104.410 Y111.610 E328.94209
G0 F10500 X104.347 Y110.966
G1 F2520 X88.484 Y126.829 E329.32891
G0 F10500 X87.839 Y126.767
G1 F2520 X104.266 Y110.340 E329.72949
G0 F10500 X104.185 Y109.714
G1 F2520 X87.232 Y126.666 E330.14288
G0 F10500 X86.656 Y126.536
G1 F2520 X104.054 Y109.138 E330.56713
G0 F10500 X103.905 Y108.579
G1 F2520 X86.080 Y126.405 E331.00181
G0 F10500 X85.528 Y126.250
G1 F2520 X103.758 Y108.020 E331.44636
G0 F10500 X103.583 Y107.488
G1 F2520 X85.010 Y126.060 E331.89925
G0 F10500 X84.492 Y125.872
G1 F2520 X103.379 Y106.985 E332.35982
G0 F10500 X103.174 Y106.482
G1 F2520 X83.976 Y125.680 E332.82797
G0 F10500 X83.511 Y125.438
G1 F2520 X102.967 Y105.982 E333.30241
G0 F10500 X102.712 Y105.530
G1 F2520 X83.046 Y125.196 E333.78197
G0 F10500 X82.580 Y124.954
G1 F2520 X102.456 Y105.078 E334.26665
G0 F10500 X102.201 Y104.627
G1 F2520 X82.135 Y124.693 E334.75597
G0 F10500 X81.718 Y124.403
G1 F2520 X101.924 Y104.197 E335.24870
G0 F10500 X101.621 Y103.793
G1 F2520 X81.301 Y124.112 E335.74419
G0 F10500 X80.885 Y123.822
G1 F2520 X101.317 Y103.389 E336.24245
G0 F10500 X101.014 Y102.985
G1 F2520 X80.504 Y123.495 E336.74259
G0 F10500 X80.133 Y123.159
G1 F2520 X100.678 Y102.614 E337.24359
G0 F10500 X100.330 Y102.255
G1 F2520 X79.762 Y122.823 E337.74514
G0 F10500 X79.396 Y122.482
G1 F2520 X99.982 Y101.896 E338.24714
G0 F10500 X99.632 Y101.539
G1 F2520 X79.070 Y122.101 E338.74855
G0 F10500 X78.744 Y121.720
G1 F2520 X99.238 Y101.225 E339.24831
G0 F10500 X98.845 Y100.912
G1 F2520 X78.417 Y121.340 E339.74646
G0 F10500 X78.107 Y120.942
G1 F2520 X98.451 Y100.599 E340.24254
G0 F10500 X98.042 Y100.300
G1 F2520 X77.827 Y120.515 E340.73549
G0 F10500 X77.548 Y120.087
G1 F2520 X97.601 Y100.034 E341.22449
G1 F2400 E336.22449
G0 F10500 X81.911 Y100.168
G1 F2400 E341.22449
G1 F2520 X77.706 Y104.373 E341.32703
G0 F10500 X77.852 Y104.469
G0 X76.930 Y106.092
G0 X76.771 Y106.015
G1 F2520 X83.537 Y99.249 E341.49202
G0 F10500 X84.761 Y98.732
G1 F2520 X76.226 Y107.268 E341.70016
G0 F10500 X75.878 Y108.322
G1 F2520 X85.844 Y98.357 E341.94317
G0 F10500 X86.764 Y98.144
G1 F2520 X75.646 Y109.261 E342.21427
G0 F10500 X75.476 Y110.138
G1 F2520 X87.660 Y97.954 E342.51138
G0 F10500 X88.444 Y97.878
G1 F2520 X75.378 Y110.943 E342.82999
G0 F10500 X75.330 Y111.699
G1 F2520 X89.227 Y97.802 E343.16887
G0 F10500 X89.934 Y97.802
G1 F2520 X75.295 Y112.441 E343.52585
G0 F10500 X75.339 Y113.104
G1 F2520 X90.619 Y97.823 E343.89847
G0 F10500 X91.300 Y97.850
G1 F2520 X75.383 Y113.767 E344.28661
G0 F10500 X75.446 Y114.411
G1 F2520 X91.908 Y97.949 E344.68804
G0 F10500 X92.517 Y98.048
G1 F2520 X75.562 Y115.003 E345.10149
G0 F10500 X75.677 Y115.594
G1 F2520 X93.119 Y98.152 E345.52682
G0 F10500 X93.666 Y98.312
G1 F2520 X75.808 Y116.171 E345.96231
G0 F10500 X75.984 Y116.701
G1 F2520 X94.213 Y98.473 E346.40681
G0 F10500 X94.760 Y98.633
G1 F2520 X76.161 Y117.231 E346.86034
G0 F10500 X76.338 Y117.762
G1 F2520 X95.261 Y98.839 E347.32179
G0 F10500 X95.752 Y99.055
G1 F2520 X76.561 Y118.246 E347.78976
G0 F10500 X76.792 Y118.722
G1 F2520 X96.243 Y99.271 E348.26408
G0 F10500 X96.721 Y99.500
G1 F2520 X77.023 Y119.199 E348.74444
G0 F10500 X77.269 Y119.660
G1 F2520 X97.162 Y99.767 E349.22953
G0 F10500 X96.602 Y100.686
G1 F2400 E344.22953
G0 F10500 X129.199 Y107.874
;TYPE:WALL-OUTER
G1 F2400 E349.22953
G1 F2520 X129.201 Y107.850 E349.22995
G1 X129.555 Y106.029 E349.26194
G1 X130.150 Y104.222 E349.29474
G1 X130.156 Y104.205 E349.29505
G1 X130.962 Y102.532 E349.32707
G1 X131.988 Y100.946 E349.35964
G1 X133.210 Y99.503 E349.39225
G1 X134.610 Y98.226 E349.42492
G1 X136.157 Y97.141 E349.45750
G1 X137.839 Y96.258 E349.49026
G1 X137.854 Y96.250 E349.49055
G1 X139.598 Y95.609 E349.52259
G1 X141.458 Y95.180 E349.55550
G1 X143.337 Y94.996 E349.58806
G1 X143.360 Y94.994 E349.58846
G1 X145.220 Y95.053 E349.62055
G1 X145.244 Y95.054 E349.62096
G1 X147.076 Y95.350 E349.65296
G1 X148.886 Y95.882 E349.68549
G1 X150.651 Y96.658 E349.71873
G1 X152.250 Y97.628 E349.75098
G1 X153.742 Y98.813 E349.78384
G1 X155.036 Y100.150 E349.81592
G1 X156.177 Y101.670 E349.84869
G1 X157.100 Y103.304 E349.88105
G1 X157.813 Y105.055 E349.91365
G1 X158.302 Y106.897 E349.94651
G1 X158.544 Y108.756 E349.97884
G1 X158.580 Y109.735 E349.99573
G1 X158.549 Y110.677 E350.01198
G1 X158.312 Y112.518 E350.04399
G1 X157.837 Y114.349 E350.07660
G1 X157.132 Y116.102 E350.10918
G1 X156.210 Y117.746 E350.14169
G1 X155.072 Y119.280 E350.17462
G1 X153.768 Y120.630 E350.20698
G1 X152.285 Y121.818 E350.23975
G1 X150.672 Y122.799 E350.27230
G1 X150.654 Y122.810 E350.27267
G1 X148.923 Y123.576 E350.30531
G1 X147.148 Y124.102 E350.33723
G1 X145.281 Y124.410 E350.36985
G1 X143.375 Y124.475 E350.40274
G1 X143.353 Y124.476 E350.40312
G1 X141.500 Y124.297 E350.43522
G1 X139.659 Y123.880 E350.46777
G1 X137.893 Y123.234 E350.50019
G1 X136.183 Y122.347 E350.53341
G1 X134.663 Y121.287 E350.56536
G1 X133.264 Y120.023 E350.59787
G1 X132.030 Y118.581 E350.63060
G1 X130.998 Y117.003 E350.66311
G1 X130.173 Y115.300 E350.69574
G1 X129.569 Y113.495 E350.72856
G1 X129.562 Y113.474 E350.72894
G1 X129.208 Y111.657 E350.76086
G1 X129.082 Y109.754 E350.79375
G1 X129.080 Y109.731 E350.79414
G1 X129.199 Y107.874 E350.82623
G0 F10500 X129.376 Y107.857
;TYPE:SKIN
G1 F2520 X141.924 Y95.309 E351.13222
G0 F10500 X142.708 Y95.232
G1 F2520 X129.326 Y108.615 E351.45855
G0 F10500 X129.277 Y109.371
G1 F2520 X143.476 Y95.172 E351.80480
G0 F10500 X144.162 Y95.193
G1 F2520 X129.277 Y110.078 E352.16777
G0 F10500 X129.322 Y110.740
G1 F2520 X144.847 Y95.215 E352.54636
G0 F10500 X145.498 Y95.271
G1 F2520 X129.365 Y111.403 E352.93975
G0 F10500 X129.456 Y112.020
G1 F2520 X146.106 Y95.370 E353.34577
G0 F10500 X146.715 Y95.468
G1 F2520 X129.571 Y112.612 E353.76383
G0 F10500 X129.686 Y113.204
G1 F2520 X147.294 Y95.596 E354.19321
G0 F10500 X147.841 Y95.757
G1 F2520 X129.840 Y113.757 E354.63215
G0 F10500 X130.017 Y114.287
G1 F2520 X148.387 Y95.917 E355.08011
G0 F10500 X148.923 Y96.089
G1 F2520 X130.195 Y114.817 E355.53680
G0 F10500 X130.384 Y115.335
G1 F2520 X149.414 Y96.305 E356.00085
G0 F10500 X149.905 Y96.521
G1 F2520 X130.614 Y115.812 E356.47127
G0 F10500 X130.845 Y116.287
G1 F2520 X150.396 Y96.737 E356.94801
G0 F10500 X150.854 Y96.986
G1 F2520 X131.076 Y116.764 E357.43030
G0 F10500 X131.340 Y117.207
G1 F2520 X151.294 Y97.253 E357.91689
G0 F10500 X151.734 Y97.520
G1 F2520 X131.620 Y117.634 E358.40737
G0 F10500 X131.899 Y118.062
G1 F2520 X152.172 Y97.790 E358.90173
G0 F10500 X152.566 Y98.102
G1 F2520 X132.180 Y118.488 E359.39884
G0 F10500 X132.506 Y118.869
G1 F2520 X152.960 Y98.415 E359.89762
G0 F10500 X153.355 Y98.728
G1 F2520 X132.832 Y119.250 E360.39807
G0 F10500 X133.159 Y119.631
G1 F2520 X153.733 Y99.057 E360.89977
G0 F10500 X154.080 Y99.417
G1 F2520 X133.498 Y119.999 E361.40167
G1 F2400 E356.40167
G0 F10500 X129.546 Y106.980
G1 F2400 E361.40167
G1 F2520 X141.080 Y95.446 E361.68293
G0 F10500 X140.160 Y95.659
G1 F2520 X129.717 Y106.102 E361.93759
G0 F10500 X130.058 Y105.054
G1 F2520 X139.154 Y95.958 E362.15939
G0 F10500 X138.037 Y96.368
G1 F2520 X130.488 Y103.917 E362.34348
G0 F10500 X130.645 Y103.993
G0 X131.322 Y102.618
G0 X131.176 Y102.521
G1 F2520 X136.585 Y97.113 E362.47537
G0 F10500 X136.666 Y97.269
G0 X133.811 Y99.426
G0 X133.694 Y99.296
G1 F2520 X133.167 Y99.824 E362.48823
G1 F2400 E357.48823
G0 F10500 X133.869 Y120.335
G1 F2400 E362.48823
G1 F2520 X154.428 Y99.776 E362.98957
G0 F10500 X154.776 Y100.135
G1 F2520 X134.240 Y120.671 E363.49034
G0 F10500 X134.611 Y121.007
G1 F2520 X155.095 Y100.523 E363.98985
G0 F10500 X155.399 Y100.926
G1 F2520 X135.009 Y121.316 E364.48707
G0 F10500 X135.425 Y121.607
G1 F2520 X155.702 Y101.330 E364.98153
G0 F10500 X156.006 Y101.734
G1 F2520 X135.842 Y121.898 E365.47323
G0 F10500 X136.259 Y122.188
G1 F2520 X156.264 Y102.182 E365.96107
G0 F10500 X156.520 Y102.634
G1 F2520 X136.723 Y122.431 E366.44383
G0 F10500 X137.189 Y122.672
G1 F2520 X156.775 Y103.086 E366.92144
G0 F10500 X157.013 Y103.555
G1 F2520 X137.654 Y122.914 E367.39352
G0 F10500 X138.138 Y123.137
G1 F2520 X157.217 Y104.058 E367.85876
G0 F10500 X157.421 Y104.562
G1 F2520 X138.655 Y123.327 E368.31637
G0 F10500 X139.173 Y123.516
G1 F2520 X157.625 Y105.064 E368.76632
G0 F10500 X157.779 Y105.617
G1 F2520 X139.691 Y123.705 E369.20740
G0 F10500 X140.265 Y123.838
G1 F2520 X157.928 Y106.176 E369.63811
G0 F10500 X158.076 Y106.734
G1 F2520 X140.842 Y123.969 E370.05838
G0 F10500 X141.418 Y124.100
G1 F2520 X158.181 Y107.336 E370.46716
G0 F10500 X158.262 Y107.963
G1 F2520 X142.050 Y124.175 E370.86250
G0 F10500 X142.695 Y124.237
G1 F2520 X158.343 Y108.588 E371.24409
G0 F10500 X158.385 Y109.254
G1 F2520 X143.340 Y124.299 E371.61097
G0 F10500 X144.070 Y124.276
G1 F2520 X158.396 Y109.950 E371.96031
G0 F10500 X158.370 Y110.683
G1 F2520 X144.802 Y124.251 E372.29117
G0 F10500 X145.577 Y124.183
G1 F2520 X158.266 Y111.495 E372.60058
G0 F10500 X158.162 Y112.306
G1 F2520 X146.424 Y124.043 E372.88680
G0 F10500 X147.301 Y123.873
G1 F2520 X157.945 Y113.229 E373.14636
G0 F10500 X157.697 Y114.185
G1 F2520 X148.305 Y123.576 E373.37538
G0 F10500 X149.428 Y123.161
G1 F2520 X157.248 Y115.341 E373.56607
G0 F10500 X157.087 Y115.276
G0 X156.442 Y116.619
G0 X156.593 Y116.703
G1 F2520 X150.751 Y122.545 E373.70853
G0 F10500 X150.662 Y122.396
G0 X152.800 Y120.957
G0 X152.909 Y121.094
G1 F2520 X155.221 Y118.782 E373.76491
G0 F10500 X154.362 Y118.141
G1 F2400 E368.76491
G0 F10500 X180.369 Y113.455
;TYPE:WALL-OUTER
G1 F2400 E373.76491
G1 F2520 X180.362 Y113.434 E373.76529
G1 X180.008 Y111.616 E373.79723
G1 X179.881 Y109.714 E373.83009
G1 X179.879 Y109.691 E373.83049
G1 X179.999 Y107.834 E373.86258
G1 X180.001 Y107.810 E373.86299
G1 X180.355 Y105.988 E373.89500
G1 X180.950 Y104.182 E373.92779
G1 X180.957 Y104.161 E373.92817
G1 X181.760 Y102.494 E373.96007
G1 X182.788 Y100.905 E373.99271
G1 X184.010 Y99.463 E374.02530
G1 X185.410 Y98.185 E374.05798
G1 X186.957 Y97.101 E374.09056
G1 X188.639 Y96.218 E374.12331
G1 X188.654 Y96.210 E374.12361
G1 X190.398 Y95.569 E374.15564
G1 X192.257 Y95.139 E374.18854
G1 X194.137 Y94.956 E374.22112
G1 X194.160 Y94.954 E374.22151
G1 X196.020 Y95.012 E374.25360
G1 X196.044 Y95.013 E374.25401
G1 X197.876 Y95.310 E374.28602
G1 X199.686 Y95.842 E374.31855
G1 X201.452 Y96.618 E374.35181
G1 X203.050 Y97.587 E374.38403
G1 X204.542 Y98.773 E374.41690
G1 X205.836 Y100.109 E374.44897
G1 X206.977 Y101.630 E374.48175
G1 X207.900 Y103.264 E374.51411
G1 X208.613 Y105.014 E374.54670
G1 X209.102 Y106.857 E374.57957
G1 X209.344 Y108.716 E374.61190
G1 X209.379 Y109.695 E374.62879
G1 X209.349 Y110.637 E374.64504
G1 X209.112 Y112.477 E374.67703
G1 X208.637 Y114.309 E374.70967
G1 X207.932 Y116.061 E374.74223
G1 X207.010 Y117.706 E374.77475
G1 X205.872 Y119.239 E374.80767
G1 X204.568 Y120.589 E374.84003
G1 X203.085 Y121.778 E374.87281
G1 X201.472 Y122.759 E374.90536
G1 X201.454 Y122.770 E374.90572
G1 X199.723 Y123.536 E374.93836
G1 X197.948 Y124.062 E374.97028
G1 X196.080 Y124.370 E375.00293
G1 X194.175 Y124.434 E375.03580
G1 X194.153 Y124.435 E375.03618
G1 X192.299 Y124.257 E375.06829
G1 X190.459 Y123.840 E375.10082
G1 X188.693 Y123.193 E375.13325
G1 X186.983 Y122.306 E375.16647
G1 X185.463 Y121.246 E375.19842
G1 X184.064 Y119.982 E375.23093
G1 X182.830 Y118.541 E375.26365
G1 X181.798 Y116.963 E375.29616
G1 X180.973 Y115.260 E375.32879
G1 X180.369 Y113.455 E375.36161
G0 F10500 X180.512 Y113.290
;TYPE:SKIN
G1 F2520 X198.211 Y95.590 E375.79321
G0 F10500 X198.758 Y95.751
G1 F2520 X180.679 Y113.830 E376.23408
G0 F10500 X180.856 Y114.360
G1 F2520 X199.305 Y95.911 E376.68396
G0 F10500 X199.828 Y96.095
G1 F2520 X181.033 Y114.890 E377.14228
G0 F10500 X181.234 Y115.396
G1 F2520 X200.319 Y96.311 E377.60768
G0 F10500 X200.811 Y96.527
G1 F2520 X181.464 Y115.873 E378.07945
G0 F10500 X181.695 Y116.350
G1 F2520 X201.302 Y96.742 E378.55758
G0 F10500 X201.749 Y97.003
G1 F2520 X181.926 Y116.826 E379.04097
G0 F10500 X182.200 Y117.258
G1 F2520 X202.190 Y97.269 E379.52842
G0 F10500 X202.630 Y97.536
G1 F2520 X182.480 Y117.686 E380.01978
G0 F10500 X182.759 Y118.114
G1 F2520 X203.057 Y97.816 E380.51476
G0 F10500 X203.451 Y98.129
G1 F2520 X183.051 Y118.529 E381.01222
G0 F10500 X183.377 Y118.910
G1 F2520 X203.844 Y98.443 E381.51131
G0 F10500 X204.238 Y98.756
G1 F2520 X183.703 Y119.291 E382.01206
G0 F10500 X184.029 Y119.672
G1 F2520 X204.607 Y99.095 E382.51385
G0 F10500 X204.954 Y99.454
G1 F2520 X184.378 Y120.031 E383.01562
G0 F10500 X184.750 Y120.366
G1 F2520 X205.303 Y99.813 E383.51681
G0 F10500 X205.651 Y100.172
G1 F2520 X185.121 Y120.702 E384.01744
G0 F10500 X185.492 Y121.038
G1 F2520 X205.961 Y100.569 E384.51658
G0 F10500 X206.264 Y100.973
G1 F2520 X185.899 Y121.338 E385.01319
G0 F10500 X186.315 Y121.629
G1 F2520 X206.567 Y101.377 E385.50704
G0 F10500 X206.864 Y101.788
G1 F2520 X186.732 Y121.919 E385.99795
G0 F10500 X187.158 Y122.200
G1 F2520 X207.119 Y102.239 E386.48470
G0 F10500 X207.374 Y102.691
G1 F2520 X187.623 Y122.442 E386.96634
G0 F10500 X188.089 Y122.683
G1 F2520 X207.629 Y103.143 E387.44283
G0 F10500 X207.856 Y103.623
G1 F2520 X188.554 Y122.925 E387.91351
G0 F10500 X189.049 Y123.137
G1 F2520 X208.061 Y104.126 E388.37711
G0 F10500 X208.265 Y104.629
G1 F2520 X189.567 Y123.327 E388.83307
G0 F10500 X190.084 Y123.517
G1 F2520 X208.462 Y105.139 E389.28122
G0 F10500 X208.611 Y105.697
G1 F2520 X190.612 Y123.696 E389.72013
G0 F10500 X191.189 Y123.826
G1 F2520 X208.759 Y106.256 E390.14858
G0 F10500 X208.908 Y106.814
G1 F2520 X191.765 Y123.957 E390.56662
G0 F10500 X192.345 Y124.085
G1 F2520 X208.998 Y107.431 E390.97272
G0 F10500 X209.080 Y108.057
G1 F2520 X192.989 Y124.147 E391.36509
G0 F10500 X193.634 Y124.209
G1 F2520 X209.162 Y108.682 E391.74374
G0 F10500 X209.191 Y109.360
G1 F2520 X194.296 Y124.254 E392.10694
G0 F10500 X195.027 Y124.230
G1 F2520 X209.191 Y110.067 E392.45232
G0 F10500 X209.148 Y110.817
G1 F2520 X195.758 Y124.206 E392.77883
G0 F10500 X196.559 Y124.113
G1 F2520 X209.044 Y111.628 E393.08328
G0 F10500 X208.939 Y112.440
G1 F2520 X197.407 Y123.972 E393.36449
G0 F10500 X198.318 Y123.768
G1 F2520 X208.692 Y113.394 E393.61747
G0 F10500 X208.421 Y114.372
G1 F2520 X199.322 Y123.472 E393.83936
G0 F10500 X200.500 Y123.000
G1 F2520 X207.945 Y115.555 E394.02091
G0 F10500 X207.785 Y115.490
G0 X207.048 Y116.925
G0 X207.198 Y117.009
G1 F2520 X201.937 Y122.270 E394.14920
G1 F2400 E389.14920
G0 F10500 X180.397 Y112.698
G1 F2400 E394.14920
G1 F2520 X197.645 Y95.450 E394.56980
G0 F10500 X197.037 Y95.351
G1 F2520 X180.281 Y112.107 E394.97840
G0 F10500 X180.175 Y111.506
G1 F2520 X196.429 Y95.252 E395.37476
G0 F10500 X195.795 Y95.179
G1 F2520 X180.131 Y110.843 E395.75673
G0 F10500 X180.086 Y110.180
G1 F2520 X195.109 Y95.158 E396.12306
G0 F10500 X194.423 Y95.136
G1 F2520 X180.066 Y109.494 E396.47317
G0 F10500 X180.114 Y108.738
G1 F2520 X193.677 Y95.175 E396.80390
G0 F10500 X192.893 Y95.252
G1 F2520 X180.163 Y107.982 E397.11433
G0 F10500 X180.309 Y107.129
G1 F2520 X192.078 Y95.360 E397.40132
G0 F10500 X191.158 Y95.573
G1 F2520 X180.480 Y106.251 E397.66171
G0 F10500 X180.783 Y105.240
G1 F2520 X190.194 Y95.830 E397.89118
G0 F10500 X189.077 Y96.240
G1 F2520 X181.145 Y104.172 E398.08461
G0 F10500 X181.304 Y104.249
G0 X181.960 Y102.886
G0 X181.800 Y102.809
G1 F2520 X187.705 Y96.905 E398.22859
G0 F10500 X187.786 Y97.061
G0 X185.827 Y98.320
G0 X185.727 Y98.176
G1 F2520 X183.124 Y100.778 E398.29205
G0 F10500 X183.941 Y101.475
;LAYER:4
G1 F2400 E393.29205
G0 F10500 X104.577 Y111.368 Z1.280
;TYPE:WALL-OUTER
G1 F2400 E398.29205
G1 F3000 X104.614 Y112.353 E398.30905
G1 X104.583 Y113.295 E398.32530
G1 X104.347 Y115.126 E398.35714
G1 X103.874 Y116.958 E398.38976
G1 X103.153 Y118.749 E398.42305
G1 X102.241 Y120.370 E398.45512
G1 X101.119 Y121.878 E398.48753
G1 X99.815 Y123.234 E398.51997
G1 X98.302 Y124.449 E398.55343
G1 X96.720 Y125.407 E398.58532
G1 X94.984 Y126.182 E398.61810
G1 X93.191 Y126.718 E398.65037
G1 X91.323 Y127.026 E398.68302
G1 X89.418 Y127.092 E398.71588
G1 X89.389 Y127.093 E398.71638
G1 X87.554 Y126.917 E398.74817
G1 X85.712 Y126.503 E398.78072
G1 X83.934 Y125.854 E398.81336
G1 X82.243 Y124.978 E398.84620
G1 X80.667 Y123.883 E398.87929
G1 X79.268 Y122.612 E398.91188
G1 X78.046 Y121.177 E398.94438
G1 X77.036 Y119.626 E398.97629
G1 X76.211 Y117.926 E399.00888
G1 X75.611 Y116.136 E399.04143
G1 X75.244 Y114.281 E399.07404
G1 X75.114 Y112.352 E399.10737
G1 X75.235 Y110.468 E399.13993
G1 X75.586 Y108.662 E399.17165
G1 X76.178 Y106.861 E399.20434
G1 X76.994 Y105.154 E399.23696
G1 X78.018 Y103.570 E399.26949
G1 X79.249 Y102.116 E399.30234
G1 X79.271 Y102.090 E399.30292
G1 X80.667 Y100.821 E399.33545
G1 X82.214 Y99.743 E399.36797
G1 X83.895 Y98.866 E399.40066
G1 X85.624 Y98.230 E399.43243
G1 X87.484 Y97.799 E399.46535
G1 X89.364 Y97.615 E399.49792
G1 X89.391 Y97.612 E399.49839
G1 X91.248 Y97.670 E399.53042
G1 X91.279 Y97.671 E399.53096
G1 X93.101 Y97.965 E399.56278
G1 X94.917 Y98.499 E399.59542
G1 X96.657 Y99.263 E399.62819
G1 X98.267 Y100.234 E399.66061
G1 X99.755 Y101.415 E399.69336
G1 X101.064 Y102.761 E399.72574
G1 X102.197 Y104.268 E399.75825
G1 X103.138 Y105.929 E399.79117
G1 X103.863 Y107.707 E399.82427
G1 X104.329 Y109.489 E399.85604
G1 X104.577 Y111.368 E399.88872
G0 F10500 X104.362 Y111.080
;TYPE:SKIN
G1 F3000 X91.122 Y97.840 E400.21158
G0 F10500 X90.393 Y97.818
G1 F3000 X104.419 Y111.844 E400.55361
G0 F10500 X104.432 Y112.564
G1 F3000 X89.663 Y97.795 E400.91375
G0 F10500 X88.988 Y97.827
G1 F3000 X104.409 Y113.248 E401.28980
G0 F10500 X104.332 Y113.878
G1 F3000 X88.344 Y97.890 E401.67967
G0 F10500 X87.700 Y97.953
G1 F3000 X104.251 Y114.504 E402.08327
G0 F10500 X104.166 Y115.126
G1 F3000 X87.106 Y98.066 E402.49928
G0 F10500 X86.532 Y98.199
G1 F3000 X104.021 Y115.689 E402.92577
G0 F10500 X103.876 Y116.250
G1 F3000 X85.958 Y98.332 E403.36271
G0 F10500 X85.412 Y98.494
G1 F3000 X103.730 Y116.811 E403.80938
G0 F10500 X103.537 Y117.325
G1 F3000 X84.895 Y98.684 E404.26396
G0 F10500 X84.379 Y98.874
G1 F3000 X103.334 Y117.830 E404.72620
G0 F10500 X103.131 Y118.334
G1 F3000 X83.872 Y99.075 E405.19583
G0 F10500 X83.408 Y99.318
G1 F3000 X102.911 Y118.821 E405.67142
G0 F10500 X102.657 Y119.274
G1 F3000 X82.943 Y99.560 E406.15215
G0 F10500 X82.479 Y99.803
G1 F3000 X102.401 Y119.725 E406.63796
G0 F10500 X102.251 Y119.640
G0 X104.081 Y110.287
G0 X104.255 Y110.265
G1 F3000 X91.944 Y97.954 E406.93816
G0 F10500 X92.787 Y98.091
G1 F3000 X104.135 Y109.438 E407.21488
G0 F10500 X103.885 Y108.481
G1 F3000 X93.737 Y98.333 E407.46234
G0 F10500 X94.739 Y98.628
G1 F3000 X103.577 Y107.466 E407.67786
G0 F10500 X103.090 Y106.272
G1 F3000 X95.969 Y99.151 E407.85150
G0 F10500 X95.898 Y99.311
G0 X97.409 Y100.122
G0 X97.500 Y99.974
G1 F3000 X102.261 Y104.736 E407.96761
G1 F2400 E402.96761
G0 F10500 X102.147 Y120.178
G1 F2400 E407.96761
G1 F3000 X82.043 Y100.074 E408.45786
G0 F10500 X81.626 Y100.365
G1 F3000 X101.855 Y120.593 E408.95113
G0 F10500 X101.553 Y120.999
G1 F3000 X81.209 Y100.655 E409.44723
G0 F10500 X80.793 Y100.945
G1 F3000 X101.252 Y121.405 E409.94614
G0 F10500 X100.946 Y121.806
G1 F3000 X80.421 Y101.281 E410.44665
G0 F10500 X80.050 Y101.617
G1 F3000 X100.599 Y122.166 E410.94774
G0 F10500 X100.252 Y122.526
G1 F3000 X79.680 Y101.954 E411.44940
G0 F10500 X79.320 Y102.301
G1 F3000 X99.906 Y122.887 E411.95139
G0 F10500 X99.540 Y123.228
G1 F3000 X78.995 Y102.683 E412.45239
G0 F10500 X78.671 Y103.067
G1 F3000 X99.148 Y123.543 E412.95171
G0 F10500 X98.755 Y123.858
G1 F3000 X78.348 Y103.450 E413.44936
G0 F10500 X78.043 Y103.852
G1 F3000 X98.364 Y124.173 E413.94489
G0 F10500 X97.944 Y124.460
G1 F3000 X77.765 Y104.281 E414.43696
G0 F10500 X77.487 Y104.711
G1 F3000 X97.503 Y124.727 E414.92506
G0 F10500 X97.063 Y124.993
G1 F3000 X77.209 Y105.140 E415.40919
G0 F10500 X76.969 Y105.607
G1 F3000 X96.621 Y125.259 E415.88841
G0 F10500 X96.132 Y125.477
G1 F3000 X76.741 Y106.086 E416.36127
G0 F10500 X76.513 Y106.565
G1 F3000 X95.643 Y125.695 E416.82776
G0 F10500 X95.154 Y125.913
G1 F3000 X76.296 Y107.055 E417.28761
G0 F10500 X76.122 Y107.588
G1 F3000 X94.635 Y126.101 E417.73906
G0 F10500 X94.091 Y126.264
G1 F3000 X75.946 Y108.120 E418.18152
G0 F10500 X75.771 Y108.651
G1 F3000 X93.547 Y126.427 E418.61499
G0 F10500 X92.985 Y126.573
G1 F3000 X75.650 Y109.238 E419.03771
G0 F10500 X75.535 Y109.829
G1 F3000 X92.378 Y126.673 E419.44844
G0 F10500 X91.771 Y126.773
G1 F3000 X75.420 Y110.422 E419.84717
G0 F10500 X75.369 Y111.078
G1 F3000 X91.147 Y126.856 E420.23192
G0 F10500 X90.463 Y126.879
G1 F3000 X75.327 Y111.743 E420.60102
G0 F10500 X75.293 Y112.416
G1 F3000 X89.779 Y126.903 E420.95427
G0 F10500 X89.053 Y126.883
G1 F3000 X75.344 Y113.174 E421.28857
G0 F10500 X75.395 Y113.932
G1 F3000 X88.270 Y126.807 E421.60253
G0 F10500 X87.472 Y126.717
G1 F3000 X75.516 Y114.761 E421.89408
G0 F10500 X75.690 Y115.642
G1 F3000 X86.561 Y126.512 E422.15916
G0 F10500 X85.624 Y126.282
G1 F3000 X75.954 Y116.613 E422.39496
G0 F10500 X76.310 Y117.676
G1 F3000 X84.511 Y125.877 E422.59494
G0 F10500 X83.205 Y125.278
G1 F3000 X76.925 Y118.998 E422.74808
G0 F10500 X77.083 Y118.922
G0 X78.134 Y120.674
G0 X77.988 Y120.768
G1 F3000 X81.394 Y124.174 E422.83114
G0 F10500 X82.009 Y123.295
G1 F2400 E417.83114
G0 F10500 X129.577 Y113.517
;TYPE:WALL-OUTER
G1 F2400 E422.83114
G1 F3000 X129.210 Y111.664 E422.86371
G1 X129.080 Y109.734 E422.89706
G1 X129.201 Y107.850 E422.92962
G1 X129.552 Y106.045 E422.96132
G1 X130.144 Y104.243 E422.99403
G1 X130.960 Y102.536 E423.02665
G1 X131.986 Y100.949 E423.05924
G1 X133.214 Y99.498 E423.09201
G1 X133.236 Y99.472 E423.09260
G1 X134.633 Y98.204 E423.12513
G1 X136.180 Y97.125 E423.15766
G1 X137.861 Y96.248 E423.19035
G1 X139.590 Y95.612 E423.22211
G1 X141.478 Y95.175 E423.25553
G1 X143.330 Y94.997 E423.28761
G1 X143.357 Y94.994 E423.28808
G1 X145.214 Y95.053 E423.32012
G1 X145.245 Y95.054 E423.32065
G1 X147.068 Y95.348 E423.35249
G1 X148.881 Y95.881 E423.38508
G1 X150.623 Y96.645 E423.41787
G1 X152.232 Y97.617 E423.45029
G1 X153.721 Y98.797 E423.48305
G1 X155.030 Y100.144 E423.51543
G1 X156.163 Y101.650 E423.54793
G1 X157.104 Y103.311 E423.58085
G1 X157.828 Y105.090 E423.61397
G1 X158.295 Y106.871 E423.64571
G1 X158.543 Y108.750 E423.67840
G1 X158.580 Y109.735 E423.69539
G1 X158.549 Y110.677 E423.71164
G1 X158.313 Y112.510 E423.74351
G1 X157.839 Y114.341 E423.77612
G1 X157.119 Y116.132 E423.80941
G1 X156.207 Y117.752 E423.84146
G1 X155.085 Y119.261 E423.87389
G1 X153.778 Y120.621 E423.90641
G1 X152.272 Y121.829 E423.93970
G1 X150.686 Y122.789 E423.97167
G1 X148.950 Y123.564 E424.00445
G1 X147.156 Y124.100 E424.03674
G1 X145.288 Y124.408 E424.06938
G1 X143.384 Y124.475 E424.10223
G1 X143.355 Y124.476 E424.10273
G1 X141.520 Y124.299 E424.13452
G1 X139.677 Y123.885 E424.16709
G1 X137.900 Y123.237 E424.19970
G1 X136.209 Y122.361 E424.23254
G1 X134.633 Y121.266 E424.26563
G1 X133.233 Y119.995 E424.29824
G1 X132.011 Y118.559 E424.33075
G1 X131.002 Y117.008 E424.36266
G1 X130.178 Y115.310 E424.39520
G1 X129.577 Y113.517 E424.42781
G0 F10500 X129.660 Y113.043
;TYPE:SKIN
G1 F3000 X140.509 Y123.892 E424.69236
G0 F10500 X141.420 Y124.096
G1 F3000 X129.485 Y112.161 E424.98340
G0 F10500 X129.360 Y111.329
G1 F3000 X142.220 Y124.189 E425.29700
G0 F10500 X143.003 Y124.264
G1 F3000 X129.310 Y110.572 E425.63089
G0 F10500 X129.259 Y109.814
G1 F3000 X143.731 Y124.286 E425.98380
G0 F10500 X144.415 Y124.262
G1 F3000 X129.291 Y109.139 E426.35259
G0 F10500 X129.334 Y108.474
G1 F3000 X145.099 Y124.239 E426.73702
G0 F10500 X145.724 Y124.158
G1 F3000 X129.383 Y107.816 E427.13551
G0 F10500 X129.498 Y107.224
G1 F3000 X146.332 Y124.058 E427.54602
G0 F10500 X146.938 Y123.957
G1 F3000 X129.614 Y106.633 E427.96847
G0 F10500 X129.735 Y106.046
G1 F3000 X147.501 Y123.813 E428.40171
G0 F10500 X148.045 Y123.650
G1 F3000 X129.909 Y105.514 E428.84396
G0 F10500 X130.084 Y104.982
G1 F3000 X148.590 Y123.487 E429.29522
G0 F10500 X149.109 Y123.300
G1 F3000 X130.259 Y104.450 E429.75489
G0 F10500 X130.473 Y103.957
G1 F3000 X149.599 Y123.082 E430.22127
G0 F10500 X150.088 Y122.864
G1 F3000 X130.702 Y103.478 E430.69400
G0 F10500 X130.930 Y103.000
G1 F3000 X150.576 Y122.646 E431.17307
G0 F10500 X151.020 Y122.382
G1 F3000 X131.169 Y102.531 E431.65715
G0 F10500 X131.446 Y102.101
G1 F3000 X151.460 Y122.115 E432.14519
G0 F10500 X151.900 Y121.848
G1 F3000 X131.724 Y101.672 E432.63719
G0 F10500 X132.002 Y101.243
G1 F3000 X152.322 Y121.563 E433.13270
G0 F10500 X152.714 Y121.248
G1 F3000 X132.306 Y100.839 E433.63037
G0 F10500 X132.630 Y100.457
G1 F3000 X153.107 Y120.933 E434.12969
G0 F10500 X153.499 Y120.618
G1 F3000 X132.954 Y100.073 E434.63069
G1 F2400 E429.63069
G0 F10500 X129.928 Y114.018
G1 F2400 E434.63069
G1 F3000 X139.570 Y123.660 E434.86581
G0 F10500 X138.457 Y123.254
G1 F3000 X130.284 Y115.081 E435.06511
G0 F10500 X130.904 Y116.408
G1 F3000 X137.144 Y122.649 E435.21729
G0 F10500 X137.225 Y122.494
G0 X135.418 Y121.387
G0 X135.318 Y121.529
G1 F3000 X131.981 Y118.192 E435.29866
G1 F2400 E430.29866
G0 F10500 X133.278 Y99.690
G1 F2400 E435.29866
G1 F3000 X153.865 Y120.278 E435.80070
G0 F10500 X154.212 Y119.917
G1 F3000 X133.637 Y99.342 E436.30242
G0 F10500 X134.008 Y99.006
G1 F3000 X154.558 Y119.556 E436.80354
G0 F10500 X154.905 Y119.196
G1 F3000 X134.379 Y98.670 E437.30407
G0 F10500 X134.750 Y98.334
G1 F3000 X155.212 Y118.796 E437.80305
G0 F10500 X155.513 Y118.390
G1 F3000 X135.167 Y98.044 E438.29919
G0 F10500 X135.584 Y97.753
G1 F3000 X155.815 Y117.985 E438.79254
G0 F10500 X156.107 Y117.570
G1 F3000 X136.000 Y97.463 E439.28286
G0 F10500 X136.434 Y97.190
G1 F3000 X156.362 Y117.118 E439.76881
G0 F10500 X156.617 Y116.665
G1 F3000 X136.899 Y96.947 E440.24963
G0 F10500 X137.363 Y96.705
G1 F3000 X156.872 Y116.213 E440.72536
G0 F10500 X157.092 Y115.727
G1 F3000 X137.828 Y96.462 E441.19513
G0 F10500 X138.334 Y96.261
G1 F3000 X157.295 Y115.223 E441.65751
G0 F10500 X157.498 Y114.718
G1 F3000 X138.851 Y96.071 E442.11222
G0 F10500 X139.367 Y95.880
G1 F3000 X157.693 Y114.206 E442.55911
G0 F10500 X157.838 Y113.644
G1 F3000 X139.912 Y95.718 E442.99624
G0 F10500 X140.486 Y95.585
G1 F3000 X157.983 Y113.082 E443.42291
G0 F10500 X158.129 Y112.521
G1 F3000 X141.060 Y95.451 E443.83915
G0 F10500 X141.649 Y95.334
G1 F3000 X158.215 Y111.899 E444.24311
G0 F10500 X158.295 Y111.273
G1 F3000 X142.295 Y95.272 E444.63328
G0 F10500 X142.940 Y95.211
G1 F3000 X158.374 Y110.644 E445.00963
G0 F10500 X158.396 Y109.960
G1 F3000 X143.615 Y95.178 E445.37008
G0 F10500 X144.345 Y95.201
G1 F3000 X158.385 Y109.241 E445.71245
G0 F10500 X158.329 Y108.478
G1 F3000 X145.074 Y95.223 E446.03568
G0 F10500 X145.894 Y95.336
G1 F3000 X158.222 Y107.664 E446.33630
G0 F10500 X158.106 Y106.841
G1 F3000 X146.737 Y95.472 E446.61354
G0 F10500 X147.684 Y95.711
G1 F3000 X157.854 Y105.882 E446.86155
G0 F10500 X157.548 Y104.868
G1 F3000 X148.686 Y96.007 E447.07764
G0 F10500 X149.908 Y96.522
G1 F3000 X157.063 Y103.676 E447.25211
G0 F10500 X156.905 Y103.738
G0 X156.093 Y102.236
G0 X156.245 Y102.152
G1 F3000 X151.430 Y97.336 E447.36953
G0 F10500 X150.874 Y98.253
G1 F2400 E442.36953
G0 F10500 X180.352 Y106.004
;TYPE:WALL-OUTER
G1 F2400 E447.36953
G1 F3000 X180.944 Y104.203 E447.40222
G1 X181.760 Y102.495 E447.43486
G1 X182.783 Y100.912 E447.46736
G1 X184.014 Y99.458 E447.50021
G1 X184.036 Y99.432 E447.50080
G1 X185.433 Y98.163 E447.53334
G1 X186.980 Y97.085 E447.56585
G1 X188.661 Y96.208 E447.59855
G1 X190.390 Y95.572 E447.63031
G1 X192.249 Y95.141 E447.66322
G1 X194.130 Y94.957 E447.69581
G1 X194.157 Y94.954 E447.69628
G1 X196.014 Y95.012 E447.72831
G1 X196.045 Y95.013 E447.72885
G1 X197.868 Y95.308 E447.76069
G1 X199.681 Y95.841 E447.79327
G1 X201.423 Y96.605 E447.82607
G1 X203.032 Y97.576 E447.85848
G1 X204.521 Y98.757 E447.89125
G1 X205.830 Y100.103 E447.92362
G1 X206.963 Y101.610 E447.95613
G1 X207.904 Y103.271 E447.98905
G1 X208.628 Y105.049 E448.02215
G1 X209.095 Y106.831 E448.05392
G1 X209.343 Y108.710 E448.08660
G1 X209.379 Y109.695 E448.10359
G1 X209.349 Y110.637 E448.11984
G1 X209.113 Y112.469 E448.15169
G1 X208.639 Y114.301 E448.18432
G1 X207.919 Y116.091 E448.21759
G1 X207.007 Y117.712 E448.24966
G1 X205.885 Y119.220 E448.28207
G1 X204.578 Y120.580 E448.31460
G1 X203.072 Y121.789 E448.34790
G1 X201.486 Y122.749 E448.37986
G1 X199.750 Y123.524 E448.41265
G1 X197.956 Y124.060 E448.44493
G1 X196.089 Y124.368 E448.47756
G1 X194.184 Y124.434 E448.51043
G1 X194.155 Y124.435 E448.51093
G1 X192.319 Y124.259 E448.54273
G1 X190.478 Y123.845 E448.57527
G1 X188.700 Y123.196 E448.60790
G1 X187.009 Y122.320 E448.64074
G1 X185.433 Y121.225 E448.67383
G1 X184.033 Y119.954 E448.70644
G1 X182.811 Y118.519 E448.73894
G1 X181.802 Y116.968 E448.77084
G1 X180.978 Y115.270 E448.80339
G1 X180.377 Y113.477 E448.83599
G1 X180.010 Y111.623 E448.86858
G1 X179.879 Y109.694 E448.90192
G1 X180.001 Y107.810 E448.93447
G1 X180.352 Y106.004 E448.96620
G0 F10500 X180.551 Y105.952
;TYPE:SKIN
G1 F3000 X198.356 Y123.756 E449.40037
G0 F10500 X198.900 Y123.593
G1 F3000 X180.726 Y105.419 E449.84354
G0 F10500 X180.901 Y104.887
G1 F3000 X199.445 Y123.431 E450.29575
G0 F10500 X199.959 Y123.238
G1 F3000 X181.076 Y104.355 E450.75621
G0 F10500 X181.297 Y103.869
G1 F3000 X200.448 Y123.020 E451.22322
G0 F10500 X200.937 Y122.801
G1 F3000 X181.525 Y103.390 E451.69657
G0 F10500 X181.754 Y102.911
G1 F3000 X201.423 Y122.581 E452.17622
G0 F10500 X201.864 Y122.315
G1 F3000 X181.997 Y102.447 E452.66069
G0 F10500 X182.275 Y102.018
G1 F3000 X202.305 Y122.048 E453.14913
G0 F10500 X202.745 Y121.782
G1 F3000 X182.552 Y101.588 E453.64155
G0 F10500 X182.830 Y101.159
G1 F3000 X203.162 Y121.491 E454.13736
G0 F10500 X203.554 Y121.176
G1 F3000 X183.139 Y100.761 E454.63518
G0 F10500 X183.463 Y100.378
G1 F3000 X203.946 Y120.861 E455.13467
G0 F10500 X204.338 Y120.546
G1 F3000 X183.787 Y99.995 E455.63581
G0 F10500 X184.111 Y99.612
G1 F3000 X204.700 Y120.201 E456.13788
G0 F10500 X205.046 Y119.840
